;FLAVOR:Marlin
;TIME:13959
;Filament used: 9.92987m
;Layer height: 0.2
;MINX:83.309
;MINY:71.459
;MINZ:0.2
;MAXX:216.691
;MAXY:228.541
;MAXZ:7
;Generated with Cura_SteamEngine 4.7.0
M140 S90
M105
M190 S90
M104 S255
M105
M109 S255
M82 ;absolute extrusion mode
M201 X500.00 Y500.00 Z100.00 E5000.00 ;Setup machine max acceleration
M203 X500.00 Y500.00 Z10.00 E50.00 ;Setup machine max feedrate
M204 P500.00 R1000.00 T500.00 ;Setup Print/Retract/Travel acceleration
M205 X8.00 Y8.00 Z0.40 E5.00 ;Setup Jerk
M220 S100 ;Reset Feedrate
M221 S100 ;Reset Flowrate

G28 ;Home

G92 E0 ;Reset Extruder
G1 Z2.0 F3000 ;Move Z Axis up
G1 X10.1 Y20 Z0.28 F5000.0 ;Move to start position
G1 X10.1 Y200.0 Z0.28 F1500.0 E15 ;Draw the first line
G1 X10.4 Y200.0 Z0.28 F5000.0 ;Move to side a little
G1 X10.4 Y20 Z0.28 F1500.0 E30 ;Draw the second line
G92 E0 ;Reset Extruder
G1 Z2.0 F3000 ;Move Z Axis up

G92 E0
G92 E0
G1 F2100 E-3.5
;LAYER_COUNT:36
;LAYER:0
M107
M204 S350
G0 F6000 X85.193 Y75.193 Z0.2
M204 S275
;TYPE:SKIRT
G1 F2100 E0
G1 F900 X85.694 Y74.644 E0.02719
G1 X86.494 Y73.844 E0.06858
G1 X87.092 Y73.303 E0.09809
G1 X87.741 Y72.823 E0.12762
G1 X88.434 Y72.41 E0.15714
G1 X89.164 Y72.068 E0.18663
G1 X89.925 Y71.799 E0.21616
G1 X90.709 Y71.607 E0.24569
G1 X91.507 Y71.494 E0.27518
G1 X92.25 Y71.46 E0.30239
G1 X130.882 Y71.459 E1.71579
G1 X207.75 Y71.46 E4.52809
G1 X208.556 Y71.5 E4.55762
G1 X209.354 Y71.62 E4.58714
G1 X210.136 Y71.817 E4.61664
G1 X210.894 Y72.092 E4.64614
G1 X211.622 Y72.44 E4.67567
G1 X212.312 Y72.858 E4.70518
G1 X212.957 Y73.343 E4.73471
G1 X213.506 Y73.844 E4.7619
G1 X214.306 Y74.644 E4.80329
G1 X214.847 Y75.242 E4.83279
G1 X215.327 Y75.891 E4.86233
G1 X215.74 Y76.584 E4.89184
G1 X216.082 Y77.314 E4.92134
G1 X216.351 Y78.075 E4.95087
G1 X216.543 Y78.859 E4.9804
G1 X216.656 Y79.657 E5.00988
G1 X216.69 Y80.4 E5.0371
G1 X216.691 Y126.932 E6.73952
G1 X216.69 Y219.6 E10.12989
G1 X216.65 Y220.406 E10.15941
G1 X216.531 Y221.203 E10.1889
G1 X216.333 Y221.985 E10.21841
G1 X216.058 Y222.744 E10.24794
G1 X215.71 Y223.472 E10.27747
G1 X215.292 Y224.162 E10.30698
G1 X214.807 Y224.807 E10.33651
G1 X214.306 Y225.356 E10.3637
G1 X213.506 Y226.156 E10.40509
G1 X212.908 Y226.697 E10.43459
G1 X212.259 Y227.177 E10.46413
G1 X211.566 Y227.59 E10.49364
G1 X210.836 Y227.932 E10.52314
G1 X210.075 Y228.201 E10.55267
G1 X209.291 Y228.393 E10.5822
G1 X208.493 Y228.506 E10.61168
G1 X207.75 Y228.54 E10.6389
G1 X169.118 Y228.541 E12.05229
G1 X92.25 Y228.54 E14.8646
G1 X91.444 Y228.5 E14.89412
G1 X90.647 Y228.381 E14.9236
G1 X89.865 Y228.183 E14.95312
G1 X89.106 Y227.908 E14.98265
G1 X88.378 Y227.56 E15.01217
G1 X87.688 Y227.142 E15.04169
G1 X87.044 Y226.657 E15.07118
G1 X86.494 Y226.156 E15.0984
G1 X85.694 Y225.356 E15.1398
G1 X85.153 Y224.758 E15.1693
G1 X84.673 Y224.109 E15.19883
G1 X84.26 Y223.416 E15.22835
G1 X83.918 Y222.686 E15.25784
G1 X83.649 Y221.925 E15.28737
G1 X83.457 Y221.141 E15.3169
G1 X83.344 Y220.343 E15.34639
G1 X83.31 Y219.6 E15.3736
G1 X83.309 Y173.068 E17.07603
G1 X83.31 Y80.4 E20.46639
G1 X83.35 Y79.594 E20.49592
G1 X83.469 Y78.797 E20.5254
G1 X83.667 Y78.015 E20.55491
G1 X83.942 Y77.256 E20.58445
G1 X84.29 Y76.528 E20.61397
G1 X84.708 Y75.838 E20.64349
G1 X84.75 Y75.782 E20.64605
G0 F810 X85.193 Y75.193
M204 S350
G0 F6000 X85.629 Y75.36
M204 S275
G1 F900 X86.005 Y74.955 E20.66627
G1 X86.805 Y74.155 E20.70766
G1 X87.388 Y73.629 E20.73639
G1 X88.02 Y73.166 E20.76505
G1 X88.697 Y72.769 E20.79376
G1 X89.411 Y72.443 E20.82248
G1 X90.154 Y72.191 E20.85118
G1 X90.919 Y72.016 E20.8799
G1 X91.698 Y71.92 E20.90861
G1 X92.25 Y71.9 E20.92882
G1 X130.882 Y71.899 E22.34222
G1 X207.75 Y71.9 E25.15452
G1 X208.534 Y71.94 E25.18324
G1 X209.309 Y72.06 E25.21193
G1 X210.068 Y72.257 E25.24062
G1 X210.804 Y72.531 E25.26936
G1 X211.507 Y72.879 E25.29805
G1 X212.172 Y73.296 E25.32677
G1 X212.79 Y73.779 E25.35547
G1 X213.195 Y74.155 E25.37569
G1 X213.995 Y74.955 E25.41708
G1 X214.521 Y75.538 E25.44581
G1 X214.984 Y76.17 E25.47447
G1 X215.381 Y76.847 E25.50318
G1 X215.707 Y77.561 E25.5319
G1 X215.959 Y78.304 E25.56061
G1 X216.134 Y79.069 E25.58932
G1 X216.23 Y79.848 E25.61803
G1 X216.25 Y80.4 E25.63824
G1 X216.251 Y126.932 E27.34067
G1 X216.25 Y219.6 E30.73103
G1 X216.21 Y220.383 E30.75972
G1 X216.091 Y221.159 E30.78844
G1 X215.893 Y221.918 E30.81714
G1 X215.619 Y222.653 E30.84584
G1 X215.271 Y223.357 E30.87457
G1 X214.854 Y224.021 E30.90326
G1 X214.371 Y224.64 E30.93198
G1 X213.995 Y225.045 E30.9522
G1 X213.195 Y225.845 E30.99359
G1 X212.612 Y226.371 E31.02232
G1 X211.98 Y226.834 E31.05098
G1 X211.303 Y227.231 E31.0797
G1 X210.589 Y227.557 E31.10841
G1 X209.846 Y227.809 E31.13712
G1 X209.081 Y227.984 E31.16583
G1 X208.302 Y228.08 E31.19455
G1 X207.75 Y228.1 E31.21475
G1 X169.118 Y228.101 E32.62815
G1 X92.25 Y228.1 E35.44045
G1 X91.467 Y228.06 E35.46914
G1 X90.691 Y227.941 E35.49786
G1 X89.932 Y227.743 E35.52656
G1 X89.197 Y227.469 E35.55526
G1 X88.493 Y227.121 E35.58399
G1 X87.829 Y226.704 E35.61268
G1 X87.21 Y226.221 E35.6414
G1 X86.805 Y225.845 E35.66162
G1 X86.005 Y225.045 E35.70301
G1 X85.479 Y224.462 E35.73174
G1 X85.016 Y223.83 E35.7604
G1 X84.619 Y223.153 E35.78912
G1 X84.293 Y222.439 E35.81783
G1 X84.041 Y221.696 E35.84654
G1 X83.866 Y220.931 E35.87525
G1 X83.77 Y220.152 E35.90397
G1 X83.75 Y219.6 E35.92418
G1 X83.749 Y173.068 E37.6266
G1 X83.75 Y80.4 E41.01697
G1 X83.79 Y79.617 E41.04565
G1 X83.909 Y78.841 E41.07437
G1 X84.107 Y78.082 E41.10307
G1 X84.381 Y77.347 E41.13177
G1 X84.729 Y76.643 E41.1605
G1 X85.146 Y75.979 E41.18919
G1 X85.175 Y75.941 E41.19094
G0 F810 X85.629 Y75.36
M204 S350
G0 F6000 X85.583 Y76.123
M204 S275
G1 F900 X86.316 Y75.266 E41.2322
G1 X87.116 Y74.466 E41.27359
G1 X87.683 Y73.957 E41.30147
G1 X88.299 Y73.509 E41.32933
G1 X88.959 Y73.129 E41.3572
G1 X89.655 Y72.819 E41.38507
G1 X90.38 Y72.585 E41.41294
G1 X91.126 Y72.428 E41.44084
G1 X92.25 Y72.34 E41.48208
G1 X130.882 Y72.339 E42.89548
G1 X207.75 Y72.34 E45.70778
G1 X208.511 Y72.38 E45.73566
G1 X209.263 Y72.499 E45.76352
G1 X209.999 Y72.697 E45.7914
G1 X210.71 Y72.971 E45.81928
G1 X211.388 Y73.318 E45.84715
G1 X212.027 Y73.733 E45.87502
G1 X212.884 Y74.466 E45.91628
G1 X213.684 Y75.266 E45.95768
G1 X214.193 Y75.833 E45.98555
G1 X214.641 Y76.449 E46.01342
G1 X215.021 Y77.109 E46.04128
G1 X215.331 Y77.805 E46.06916
G1 X215.565 Y78.53 E46.09703
G1 X215.722 Y79.276 E46.12492
G1 X215.81 Y80.4 E46.16617
G1 X215.811 Y126.932 E47.8686
G1 X215.81 Y219.6 E51.25896
G1 X215.77 Y220.361 E51.28684
G1 X215.651 Y221.113 E51.3147
G1 X215.453 Y221.849 E51.34258
G1 X215.179 Y222.56 E51.37046
G1 X214.833 Y223.238 E51.39831
G1 X214.417 Y223.877 E51.4262
G1 X213.684 Y224.734 E51.46746
G1 X212.884 Y225.534 E51.50886
G1 X212.317 Y226.043 E51.53673
G1 X211.701 Y226.491 E51.5646
G1 X211.041 Y226.871 E51.59246
G1 X210.345 Y227.181 E51.62034
G1 X209.62 Y227.415 E51.64821
G1 X208.874 Y227.572 E51.6761
G1 X207.75 Y227.66 E51.71735
G1 X169.118 Y227.661 E53.13075
G1 X92.25 Y227.66 E55.94305
G1 X91.489 Y227.62 E55.97093
G1 X90.737 Y227.501 E55.99879
G1 X90.001 Y227.303 E56.02667
G1 X89.29 Y227.029 E56.05455
G1 X88.612 Y226.683 E56.0824
G1 X87.973 Y226.267 E56.11029
G1 X87.116 Y225.534 E56.15155
G1 X86.316 Y224.734 E56.19295
G1 X85.807 Y224.167 E56.22082
G1 X85.359 Y223.551 E56.24869
G1 X84.979 Y222.891 E56.27655
G1 X84.669 Y222.195 E56.30443
G1 X84.435 Y221.47 E56.3323
G1 X84.278 Y220.724 E56.36019
G1 X84.19 Y219.6 E56.40144
G1 X84.189 Y173.068 E58.10387
G1 X84.19 Y80.4 E61.49423
G1 X84.23 Y79.639 E61.52211
G1 X84.349 Y78.887 E61.54997
G1 X84.547 Y78.151 E61.57785
G1 X84.821 Y77.44 E61.60573
G1 X85.167 Y76.762 E61.63358
G1 X85.181 Y76.741 E61.6345
G0 F810 X85.583 Y76.123
M204 S350
G0 F6000 X86.02 Y76.273
M204 S275
G1 F900 X86.628 Y75.578 E61.66829
G1 X87.428 Y74.778 E61.70968
G1 X87.977 Y74.284 E61.7367
G1 X88.577 Y73.854 E61.76371
G1 X89.22 Y73.49 E61.79074
G1 X89.898 Y73.198 E61.81775
G1 X90.604 Y72.982 E61.84476
G1 X91.329 Y72.842 E61.87177
G1 X92.25 Y72.78 E61.90555
G1 X130.882 Y72.779 E63.31894
G1 X207.75 Y72.78 E66.13125
G1 X208.487 Y72.82 E66.15825
G1 X209.216 Y72.939 E66.18527
G1 X209.927 Y73.137 E66.21228
G1 X210.613 Y73.41 E66.23929
G1 X211.266 Y73.756 E66.26633
G1 X211.877 Y74.17 E66.29333
G1 X212.572 Y74.778 E66.32711
G1 X213.372 Y75.578 E66.3685
G1 X213.866 Y76.127 E66.39553
G1 X214.296 Y76.727 E66.42253
G1 X214.66 Y77.37 E66.44956
G1 X214.952 Y78.048 E66.47657
G1 X215.168 Y78.754 E66.50358
G1 X215.308 Y79.479 E66.5306
G1 X215.37 Y80.4 E66.56437
G1 X215.371 Y126.932 E68.2668
G1 X215.37 Y219.6 E71.65716
G1 X215.33 Y220.337 E71.68417
G1 X215.211 Y221.066 E71.71119
G1 X215.013 Y221.777 E71.73819
G1 X214.74 Y222.463 E71.76521
G1 X214.394 Y223.116 E71.79224
G1 X213.98 Y223.727 E71.81925
G1 X213.372 Y224.422 E71.85303
G1 X212.572 Y225.222 E71.89442
G1 X212.023 Y225.716 E71.92144
G1 X211.423 Y226.146 E71.94845
G1 X210.78 Y226.51 E71.97548
G1 X210.102 Y226.802 E72.00249
G1 X209.396 Y227.018 E72.0295
G1 X208.671 Y227.158 E72.05652
G1 X207.75 Y227.22 E72.09029
G1 X169.118 Y227.221 E73.50369
G1 X92.25 Y227.22 E76.31599
G1 X91.513 Y227.18 E76.34299
G1 X90.784 Y227.061 E76.37002
G1 X90.073 Y226.863 E76.39702
G1 X89.387 Y226.59 E76.42403
G1 X88.734 Y226.244 E76.45107
G1 X88.123 Y225.83 E76.47807
G1 X87.428 Y225.222 E76.51186
G1 X86.628 Y224.422 E76.55325
G1 X86.134 Y223.873 E76.58027
G1 X85.704 Y223.273 E76.60728
G1 X85.34 Y222.63 E76.63431
G1 X85.048 Y221.952 E76.66132
G1 X84.832 Y221.246 E76.68833
G1 X84.692 Y220.521 E76.71534
G1 X84.63 Y219.6 E76.74912
G1 X84.629 Y173.068 E78.45154
G1 X84.63 Y80.4 E81.84191
G1 X84.67 Y79.663 E81.86891
G1 X84.789 Y78.934 E81.89594
G1 X84.987 Y78.223 E81.92294
G1 X85.26 Y77.537 E81.94995
G1 X85.606 Y76.884 E81.97699
G0 F810 X86.02 Y76.273
M204 S350
G0 F6000 X86.457 Y76.428
M204 S275
G1 F900 X86.939 Y75.889 E82.00344
G1 X87.739 Y75.089 E82.04484
G1 X88.271 Y74.613 E82.07095
G1 X88.853 Y74.199 E82.09708
G1 X89.478 Y73.854 E82.1232
G1 X90.138 Y73.58 E82.14935
G1 X90.824 Y73.381 E82.17548
G1 X91.528 Y73.261 E82.20161
G1 X92.25 Y73.22 E82.22807
G1 X130.882 Y73.219 E83.64146
G1 X207.75 Y73.22 E86.45377
G1 X208.463 Y73.26 E86.47989
G1 X209.167 Y73.379 E86.50602
G1 X209.854 Y73.577 E86.53217
G1 X210.514 Y73.85 E86.5583
G1 X211.139 Y74.194 E86.58441
G1 X211.722 Y74.607 E86.61054
G1 X212.261 Y75.089 E86.637
G1 X213.061 Y75.889 E86.67839
G1 X213.537 Y76.421 E86.70451
G1 X213.951 Y77.003 E86.73064
G1 X214.296 Y77.628 E86.75676
G1 X214.57 Y78.288 E86.7829
G1 X214.769 Y78.974 E86.80904
G1 X214.889 Y79.678 E86.83516
G1 X214.93 Y80.4 E86.86162
G1 X214.931 Y126.932 E88.56405
G1 X214.93 Y219.6 E91.95441
G1 X214.89 Y220.313 E91.98054
G1 X214.771 Y221.017 E92.00666
G1 X214.573 Y221.703 E92.03279
G1 X214.301 Y222.363 E92.0589
G1 X213.956 Y222.989 E92.08505
G1 X213.543 Y223.572 E92.11119
G1 X213.061 Y224.111 E92.13765
G1 X212.261 Y224.911 E92.17904
G1 X211.729 Y225.387 E92.20516
G1 X211.147 Y225.801 E92.23129
G1 X210.522 Y226.146 E92.25741
G1 X209.862 Y226.42 E92.28355
G1 X209.176 Y226.619 E92.30969
G1 X208.472 Y226.739 E92.33581
G1 X207.75 Y226.78 E92.36227
G1 X169.118 Y226.781 E93.77567
G1 X92.25 Y226.78 E96.58797
G1 X91.537 Y226.74 E96.6141
G1 X90.833 Y226.621 E96.64022
G1 X90.147 Y226.423 E96.66634
G1 X89.487 Y226.151 E96.69246
G1 X88.861 Y225.806 E96.71861
G1 X88.278 Y225.393 E96.74475
G1 X87.739 Y224.911 E96.77121
G1 X86.939 Y224.111 E96.8126
G1 X86.463 Y223.579 E96.83872
G1 X86.049 Y222.997 E96.86485
G1 X85.704 Y222.372 E96.89096
G1 X85.43 Y221.712 E96.91711
G1 X85.231 Y221.026 E96.94324
G1 X85.111 Y220.322 E96.96937
G1 X85.07 Y219.6 E96.99583
G1 X85.069 Y173.068 E98.69826
G1 X85.07 Y80.4 E102.08862
G1 X85.11 Y79.687 E102.11475
G1 X85.229 Y78.983 E102.14087
G1 X85.427 Y78.297 E102.16699
G1 X85.699 Y77.637 E102.19311
G1 X86.033 Y77.032 E102.21839
G0 F810 X86.044 Y77.011
G0 X86.457 Y76.428
M204 S350
G0 F6000 X86.893 Y76.59
M204 S275
G1 F900 X87.25 Y76.2 E102.23774
G1 X88.05 Y75.4 E102.27913
G1 X88.564 Y74.942 E102.30432
G1 X89.129 Y74.546 E102.32956
G1 X89.735 Y74.219 E102.35475
G1 X90.375 Y73.964 E102.37996
G1 X91.04 Y73.784 E102.40516
G1 X91.722 Y73.684 E102.43038
G1 X92.25 Y73.66 E102.44972
G1 X130.882 Y73.659 E103.86312
G1 X207.75 Y73.66 E106.67542
G1 X208.438 Y73.7 E106.70063
G1 X209.117 Y73.819 E106.72585
G1 X209.777 Y74.017 E106.75106
G1 X210.41 Y74.289 E106.77627
G1 X211.007 Y74.633 E106.80148
G1 X211.56 Y75.043 E106.82667
G1 X211.95 Y75.4 E106.84601
G1 X212.75 Y76.2 E106.8874
G1 X213.208 Y76.714 E106.91259
G1 X213.604 Y77.279 E106.93783
G1 X213.931 Y77.885 E106.96303
G1 X214.186 Y78.525 E106.98823
G1 X214.366 Y79.19 E107.01344
G1 X214.466 Y79.872 E107.03865
G1 X214.49 Y80.4 E107.05799
G1 X214.491 Y126.932 E108.76042
G1 X214.49 Y219.6 E112.15078
G1 X214.45 Y220.288 E112.176
G1 X214.331 Y220.966 E112.20118
G1 X214.134 Y221.627 E112.22642
G1 X213.861 Y222.26 E112.25164
G1 X213.518 Y222.857 E112.27683
G1 X213.107 Y223.41 E112.30204
G1 X212.75 Y223.8 E112.32138
G1 X211.95 Y224.6 E112.36277
G1 X211.436 Y225.058 E112.38796
G1 X210.871 Y225.454 E112.4132
G1 X210.265 Y225.781 E112.4384
G1 X209.625 Y226.036 E112.4636
G1 X208.96 Y226.216 E112.48881
G1 X208.278 Y226.316 E112.51403
G1 X207.75 Y226.34 E112.53336
G1 X169.118 Y226.341 E113.94676
G1 X92.25 Y226.34 E116.75906
G1 X91.562 Y226.3 E116.78428
G1 X90.884 Y226.181 E116.80946
G1 X90.223 Y225.984 E116.8347
G1 X89.59 Y225.711 E116.85992
G1 X88.993 Y225.368 E116.88511
G1 X88.44 Y224.957 E116.91032
G1 X88.05 Y224.6 E116.92966
G1 X87.25 Y223.8 E116.97105
G1 X86.792 Y223.286 E116.99624
G1 X86.396 Y222.721 E117.02148
G1 X86.069 Y222.115 E117.04668
G1 X85.814 Y221.475 E117.07188
G1 X85.634 Y220.81 E117.09709
G1 X85.534 Y220.128 E117.1223
G1 X85.51 Y219.6 E117.14164
G1 X85.509 Y173.068 E118.84407
G1 X85.51 Y80.4 E122.23443
G1 X85.55 Y79.712 E122.25965
G1 X85.669 Y79.034 E122.28483
G1 X85.866 Y78.373 E122.31007
G1 X86.139 Y77.74 E122.33529
G1 X86.458 Y77.185 E122.35871
G0 F810 X86.482 Y77.143
G0 X86.893 Y76.59
M204 S350
G0 F6000 X87.329 Y76.758
M204 S275
G1 F900 X87.561 Y76.511 E122.37111
G1 X88.361 Y75.711 E122.4125
G1 X88.857 Y75.271 E122.43676
G1 X89.403 Y74.894 E122.46103
G1 X89.99 Y74.586 E122.48529
G1 X90.609 Y74.35 E122.50952
G1 X91.253 Y74.191 E122.53379
G1 X91.911 Y74.11 E122.55805
G1 X92.25 Y74.1 E122.57045
G1 X130.882 Y74.099 E123.98385
G1 X207.75 Y74.1 E126.79615
G1 X208.412 Y74.14 E126.82042
G1 X209.064 Y74.259 E126.84467
G1 X209.697 Y74.456 E126.86892
G1 X210.302 Y74.728 E126.89319
G1 X210.87 Y75.07 E126.91745
G1 X211.392 Y75.479 E126.94171
G1 X211.639 Y75.711 E126.95411
G1 X212.439 Y76.511 E126.9955
G1 X212.879 Y77.007 E127.01976
G1 X213.256 Y77.553 E127.04403
G1 X213.564 Y78.14 E127.06829
G1 X213.8 Y78.759 E127.09252
G1 X213.959 Y79.403 E127.11679
G1 X214.04 Y80.061 E127.14105
G1 X214.05 Y80.4 E127.15346
G1 X214.051 Y126.932 E128.85588
G1 X214.05 Y219.6 E132.24625
G1 X214.01 Y220.262 E132.27051
G1 X213.891 Y220.914 E132.29476
G1 X213.694 Y221.547 E132.31901
G1 X213.422 Y222.152 E132.34328
G1 X213.08 Y222.72 E132.36754
G1 X212.671 Y223.242 E132.3918
G1 X212.439 Y223.489 E132.4042
G1 X211.639 Y224.289 E132.44559
G1 X211.143 Y224.729 E132.46985
G1 X210.597 Y225.106 E132.49413
G1 X210.01 Y225.414 E132.51838
G1 X209.391 Y225.65 E132.54262
G1 X208.747 Y225.809 E132.56689
G1 X208.089 Y225.89 E132.59114
G1 X207.75 Y225.9 E132.60355
G1 X169.118 Y225.901 E134.01694
G1 X92.25 Y225.9 E136.82925
G1 X91.588 Y225.86 E136.85351
G1 X90.936 Y225.741 E136.87776
G1 X90.303 Y225.544 E136.90202
G1 X89.698 Y225.272 E136.92628
G1 X89.13 Y224.93 E136.95054
G1 X88.608 Y224.521 E136.9748
G1 X88.361 Y224.289 E136.9872
G1 X87.561 Y223.489 E137.02859
G1 X87.121 Y222.993 E137.05285
G1 X86.744 Y222.447 E137.07713
G1 X86.436 Y221.86 E137.10138
G1 X86.2 Y221.241 E137.12562
G1 X86.041 Y220.597 E137.14989
G1 X85.96 Y219.939 E137.17414
G1 X85.95 Y219.6 E137.18655
G1 X85.949 Y173.068 E138.88898
G1 X85.95 Y80.4 E142.27934
G1 X85.99 Y79.738 E142.30361
G1 X86.109 Y79.086 E142.32785
G1 X86.306 Y78.453 E142.35211
G1 X86.578 Y77.848 E142.37638
G1 X86.882 Y77.344 E142.39791
G0 F810 X86.92 Y77.28
G0 X87.329 Y76.758
M204 S350
G0 F6000 X87.358 Y77.424
