;FLAVOR:Marlin
;TIME:3918
;Filament used: 1.39942m
;Layer height: 0.16
;MINX:129.241
;MINY:127.455
;MINZ:0.2
;MAXX:170.748
;MAXY:172.547
;MAXZ:7.56
;Generated with Cura_SteamEngine 4.7.0
M140 S65
M105
M190 S65
M104 S240
M105
M109 S240
M82 ;absolute extrusion mode
M201 X500.00 Y500.00 Z100.00 E5000.00 ;Setup machine max acceleration
M203 X500.00 Y500.00 Z10.00 E50.00 ;Setup machine max feedrate
M204 P500.00 R1000.00 T500.00 ;Setup Print/Retract/Travel acceleration
M205 X8.00 Y8.00 Z0.40 E5.00 ;Setup Jerk
M220 S100 ;Reset Feedrate
M221 S100 ;Reset Flowrate

G28 ;Home

G92 E0 ;Reset Extruder
G1 Z2.0 F3000 ;Move Z Axis up
G1 X10.1 Y20 Z0.28 F5000.0 ;Move to start position
G1 X10.1 Y200.0 Z0.28 F1500.0 E15 ;Draw the first line
G1 X10.4 Y200.0 Z0.28 F5000.0 ;Move to side a little
G1 X10.4 Y20 Z0.28 F1500.0 E30 ;Draw the second line
G92 E0 ;Reset Extruder
G1 Z2.0 F3000 ;Move Z Axis up

G92 E0
G92 E0
G1 F2100 E-3.5
;LAYER_COUNT:48
;LAYER:0
M107
M204 S450
G0 F6000 X131.199 Y133.183 Z0.2
M204 S250
;TYPE:SKIRT
G1 F2100 E0
G1 F900 X131.748 Y132.643 E0.03381
G1 X132.35 Y132.162 E0.06764
G1 X132.998 Y131.747 E0.10142
G1 X133.817 Y131.345 E0.14148
G1 X134.234 Y131.183 E0.16112
G1 X135.069 Y130.888 E0.2
G1 X138.523 Y129.589 E0.36201
G1 X139.005 Y129.389 E0.38492
G1 X140.039 Y128.981 E0.43372
G1 X140.328 Y128.871 E0.4473
G1 X140.509 Y128.805 E0.45576
G1 X141.093 Y128.6 E0.48293
G1 X141.296 Y128.532 E0.49233
G1 X141.528 Y128.458 E0.50302
G1 X141.784 Y128.381 E0.51476
G1 X142.313 Y128.233 E0.53887
G1 X142.589 Y128.162 E0.55139
G1 X143.276 Y127.998 E0.5824
G1 X143.518 Y127.944 E0.59328
G1 X143.945 Y127.857 E0.61241
G1 X144.188 Y127.812 E0.62326
G1 X144.702 Y127.725 E0.64615
G1 X144.957 Y127.686 E0.65748
G1 X145.346 Y127.634 E0.67471
G1 X145.609 Y127.604 E0.68633
G1 X146.46 Y127.521 E0.72387
G1 X146.709 Y127.501 E0.73483
G1 X146.929 Y127.487 E0.74451
G1 X147.159 Y127.476 E0.75462
G1 X147.683 Y127.459 E0.77764
G1 X147.936 Y127.455 E0.78875
G1 X148.538 Y127.456 E0.81518
G1 X148.812 Y127.462 E0.82721
G1 X149.486 Y127.488 E0.85682
G1 X149.738 Y127.502 E0.8679
G1 X150.027 Y127.523 E0.88063
G1 X150.237 Y127.541 E0.88988
G1 X150.632 Y127.581 E0.90731
G1 X150.873 Y127.609 E0.91796
G1 X151.37 Y127.677 E0.93998
G1 X151.894 Y127.755 E0.96324
G1 X152.075 Y127.784 E0.97129
G1 X152.276 Y127.819 E0.98025
G1 X152.495 Y127.861 E0.99004
G1 X152.909 Y127.946 E1.00859
G1 X153.159 Y128.001 E1.01983
G1 X153.682 Y128.128 E1.04346
G1 X154.068 Y128.226 E1.06095
G1 X154.251 Y128.275 E1.06926
G1 X154.539 Y128.356 E1.0824
G1 X154.764 Y128.423 E1.0927
G1 X155.106 Y128.531 E1.10845
G1 X155.329 Y128.605 E1.11877
G1 X155.671 Y128.725 E1.13468
G1 X156.25 Y128.938 E1.16176
G1 X156.434 Y129.008 E1.17041
G1 X156.836 Y129.168 E1.1894
G1 X157.047 Y129.256 E1.19944
G1 X157.252 Y129.345 E1.20925
G1 X157.454 Y129.436 E1.21898
G1 X158.007 Y129.696 E1.24581
G1 X158.538 Y129.956 E1.27176
G1 X158.782 Y130.082 E1.28382
G1 X158.996 Y130.197 E1.29449
G1 X159.388 Y130.416 E1.3142
G1 X159.604 Y130.542 E1.32518
G1 X160.086 Y130.833 E1.3499
G1 X160.304 Y130.97 E1.3612
G1 X160.695 Y131.225 E1.3817
G1 X160.9 Y131.363 E1.39254
G1 X161.361 Y131.686 E1.41726
G1 X161.55 Y131.823 E1.42751
G1 X161.944 Y132.118 E1.44912
G1 X162.152 Y132.28 E1.46069
G1 X162.543 Y132.595 E1.48273
G1 X162.736 Y132.756 E1.49377
G1 X162.913 Y132.91 E1.50407
G1 X163.301 Y133.255 E1.52686
G1 X163.428 Y133.37 E1.53439
G1 X163.851 Y133.764 E1.55977
G1 X164.041 Y133.947 E1.57135
G1 X164.303 Y134.209 E1.58761
G1 X164.451 Y134.362 E1.59696
G1 X164.773 Y134.703 E1.61755
G1 X164.951 Y134.899 E1.62917
G1 X165.321 Y135.32 E1.65378
G1 X165.488 Y135.516 E1.66509
G1 X165.769 Y135.859 E1.68455
G1 X165.958 Y136.099 E1.69797
G1 X166.038 Y136.204 E1.70376
G1 X166.266 Y136.511 E1.72055
G1 X166.353 Y136.625 E1.72685
G1 X166.536 Y136.877 E1.74052
G1 X166.819 Y137.282 E1.76221
G1 X166.921 Y137.432 E1.77017
G1 X167.1 Y137.702 E1.7844
G1 X167.262 Y137.957 E1.79766
G1 X167.697 Y138.675 E1.83452
G1 X167.817 Y138.881 E1.84498
G1 X167.92 Y139.064 E1.8542
G1 X168.044 Y139.293 E1.86564
G1 X168.431 Y140.041 E1.90261
G1 X168.533 Y140.247 E1.9127
G1 X168.646 Y140.483 E1.92419
G1 X168.751 Y140.711 E1.93521
G1 X168.934 Y141.129 E1.95524
G1 X169.02 Y141.335 E1.96504
G1 X169.126 Y141.599 E1.97753
G1 X169.261 Y141.95 E1.99405
G1 X169.314 Y142.082 E2.00029
G1 X169.411 Y142.338 E2.01231
G1 X169.528 Y142.666 E2.0276
G1 X169.597 Y142.869 E2.03701
G1 X169.719 Y143.245 E2.05437
G1 X169.821 Y143.589 E2.07012
G1 X169.94 Y144.028 E2.09009
G1 X170.009 Y144.276 E2.10139
G1 X170.074 Y144.523 E2.1126
G1 X170.152 Y144.846 E2.12719
G1 X170.2 Y145.06 E2.13682
G1 X170.333 Y145.692 E2.16518
G1 X170.384 Y145.956 E2.17698
G1 X170.482 Y146.523 E2.20224
G1 X170.519 Y146.762 E2.21286
G1 X170.548 Y146.97 E2.22208
G1 X170.575 Y147.19 E2.23181
G1 X170.635 Y147.746 E2.25636
G1 X170.671 Y148.127 E2.27317
G1 X170.687 Y148.317 E2.28154
G1 X170.718 Y148.769 E2.30143
G1 X170.73 Y148.993 E2.31128
G1 X170.74 Y149.254 E2.32274
G1 X170.745 Y149.485 E2.33289
G1 X170.748 Y149.904 E2.35128
G1 X170.743 Y150.337 E2.37029
G1 X170.743 Y150.473 E2.37627
G1 X170.739 Y150.724 E2.38729
G1 X170.729 Y151.02 E2.40029
G1 X170.719 Y151.228 E2.40943
G1 X170.697 Y151.583 E2.42505
G1 X170.678 Y151.827 E2.43579
G1 X170.642 Y152.197 E2.45211
G1 X170.593 Y152.649 E2.47207
G1 X170.569 Y152.844 E2.4807
G1 X170.528 Y153.147 E2.49412
G1 X170.488 Y153.409 E2.50576
G1 X170.361 Y154.148 E2.53868
G1 X170.312 Y154.403 E2.55008
G1 X170.199 Y154.946 E2.57443
G1 X170.147 Y155.18 E2.58495
G1 X170.093 Y155.403 E2.59503
G1 X170.031 Y155.641 E2.60583
G1 X169.844 Y156.315 E2.63653
G1 X169.764 Y156.582 E2.64877
G1 X169.573 Y157.182 E2.67642
G1 X169.506 Y157.382 E2.68568
G1 X169.422 Y157.622 E2.69684
G1 X169.329 Y157.873 E2.70859
G1 X169.094 Y158.474 E2.73692
G1 X168.991 Y158.726 E2.74887
G1 X168.738 Y159.309 E2.77678
G1 X168.646 Y159.513 E2.7866
G1 X168.464 Y159.9 E2.80538
G1 X168.361 Y160.109 E2.81561
G1 X168.222 Y160.382 E2.82906
G1 X168.119 Y160.577 E2.83874
G1 X167.968 Y160.85 E2.85244
G1 X167.767 Y161.201 E2.87019
G1 X167.668 Y161.379 E2.87914
G1 X167.542 Y161.597 E2.89019
G1 X167.401 Y161.831 E2.90218
G1 X167.292 Y162.006 E2.91124
G1 X167.031 Y162.413 E2.93246
G1 X166.872 Y162.651 E2.94503
G1 X166.573 Y163.08 E2.96799
G1 X166.441 Y163.264 E2.97793
G1 X166.134 Y163.677 E3.00052
G1 X165.973 Y163.885 E3.01207
G1 X165.669 Y164.265 E3.03344
G1 X165.527 Y164.437 E3.04323
G1 X165.22 Y164.798 E3.06403
G1 X164.979 Y165.071 E3.08002
G1 X164.648 Y165.432 E3.10152
G1 X164.467 Y165.622 E3.11304
G1 X164.087 Y166.008 E3.13682
G1 X163.914 Y166.178 E3.14747
G1 X163.563 Y166.512 E3.16875
G1 X163.374 Y166.686 E3.18002
G1 X163.044 Y166.979 E3.1994
G1 X162.856 Y167.14 E3.21027
G1 X162.558 Y167.387 E3.22726
G1 X162.311 Y167.587 E3.24121
G1 X162.136 Y167.724 E3.25097
G1 X161.512 Y168.199 E3.2854
G1 X161.325 Y168.337 E3.2956
G1 X161.137 Y168.471 E3.30574
G1 X160.929 Y168.614 E3.31682
G1 X160.324 Y169.015 E3.34869
G1 X160.1 Y169.158 E3.36035
G1 X159.891 Y169.286 E3.37111
G1 X159.717 Y169.389 E3.37999
G1 X159.234 Y169.666 E3.40444
G1 X159.054 Y169.765 E3.41346
G1 X158.326 Y170.149 E3.44959
G1 X158.102 Y170.262 E3.46061
G1 X157.885 Y170.367 E3.47119
G1 X157.677 Y170.464 E3.48127
G1 X157.258 Y170.651 E3.50141
G1 X156.973 Y170.773 E3.51502
G1 X156.833 Y170.831 E3.52167
G1 X156.246 Y171.067 E3.54945
G1 X156.016 Y171.155 E3.56026
G1 X155.755 Y171.25 E3.57246
G1 X155.514 Y171.333 E3.58365
G1 X155.184 Y171.441 E3.59889
G1 X154.834 Y171.551 E3.615
G1 X154.658 Y171.603 E3.62306
G1 X154.049 Y171.778 E3.65087
G1 X153.793 Y171.847 E3.66251
G1 X153.548 Y171.908 E3.6736
G1 X153.346 Y171.955 E3.6827
G1 X152.782 Y172.078 E3.70805
G1 X152.423 Y172.149 E3.72412
G1 X152.013 Y172.222 E3.7424
G1 X151.751 Y172.264 E3.75405
G1 X150.952 Y172.377 E3.78948
G1 X150.696 Y172.409 E3.8008
G1 X150.3 Y172.451 E3.81829
G1 X150.076 Y172.471 E3.82816
G1 X149.732 Y172.497 E3.84331
G1 X149.475 Y172.512 E3.85461
G1 X148.861 Y172.537 E3.88159
G1 X148.601 Y172.543 E3.893
G1 X147.888 Y172.547 E3.92431
G1 X147.652 Y172.544 E3.93467
G1 X147.385 Y172.537 E3.9464
G1 X147.139 Y172.527 E3.95721
G1 X146.718 Y172.502 E3.97572
G1 X146.491 Y172.485 E3.98572
G1 X145.965 Y172.437 E4.0089
G1 X145.475 Y172.385 E4.03054
G1 X145.094 Y172.338 E4.04739
G1 X144.845 Y172.302 E4.05844
G1 X144.437 Y172.236 E4.07658
G1 X144.188 Y172.191 E4.08769
G1 X143.751 Y172.104 E4.10725
G1 X143.492 Y172.05 E4.11887
G1 X143.231 Y171.993 E4.1306
G1 X142.6 Y171.843 E4.15907
G1 X142.379 Y171.787 E4.16908
G1 X142.22 Y171.744 E4.17631
G1 X141.985 Y171.676 E4.18705
G1 X141.312 Y171.47 E4.21796
G1 X141.034 Y171.379 E4.2308
G1 X140.428 Y171.167 E4.25898
G1 X140.217 Y171.089 E4.26886
G1 X139.45 Y170.793 E4.30495
G1 X138.01 Y170.205 E4.37324
G1 X135.534 Y169.274 E4.48938
G1 X134.461 Y168.9 E4.53927
G1 X134.112 Y168.772 E4.55559
G1 X133.405 Y168.467 E4.58939
G1 X132.733 Y168.091 E4.6232
G1 X132.103 Y167.647 E4.65704
G1 X131.523 Y167.14 E4.69086
G1 X130.999 Y166.576 E4.72466
G1 X130.698 Y166.192 E4.74608
G1 X130.679 Y166.166 E4.74749
G1 X130.258 Y165.521 E4.78131
G1 X129.905 Y164.837 E4.8151
G1 X129.626 Y164.119 E4.84892
G1 X129.422 Y163.376 E4.88275
G1 X129.296 Y162.616 E4.91657
G1 X129.253 Y161.995 E4.9439
G1 X129.244 Y161.672 E4.95809
G1 X129.241 Y161.466 E4.96713
G1 X129.241 Y154.04 E5.29316
G1 X129.264 Y152.484 E5.36148
G1 X129.299 Y151.22 E5.41699
G1 X129.297 Y148.565 E5.53356
G1 X129.267 Y147.218 E5.59271
G1 X129.244 Y146.449 E5.62649
G1 X129.241 Y146.232 E5.63601
G1 X129.242 Y138.776 E5.96336
G1 X129.252 Y138.086 E5.99365
G1 X129.303 Y137.318 E6.02745
G1 X129.433 Y136.559 E6.06125
G1 X129.642 Y135.817 E6.0951
G1 X129.926 Y135.102 E6.12887
G1 X130.283 Y134.419 E6.16271
G1 X130.709 Y133.777 E6.19654
G1 X130.73 Y133.752 E6.19797
G0 F810 X131.199 Y133.183
M204 S450
G0 F6000 X131.631 Y133.365
M204 S250
G1 F900 X132.176 Y132.854 E6.23077
G1 X132.772 Y132.404 E6.26356
G1 X133.413 Y132.021 E6.29634
G1 X133.986 Y131.751 E6.32415
G1 X134.38 Y131.598 E6.34271
G1 X135.232 Y131.297 E6.38238
G1 X138.698 Y129.994 E6.54494
G1 X139.291 Y129.748 E6.57313
G1 X140.118 Y129.422 E6.61216
G1 X140.484 Y129.283 E6.62935
G1 X140.655 Y129.22 E6.63735
G1 X141.239 Y129.015 E6.66452
G1 X141.43 Y128.951 E6.67336
G1 X141.662 Y128.877 E6.68405
G1 X141.902 Y128.805 E6.69506
G1 X142.431 Y128.657 E6.71917
G1 X142.691 Y128.59 E6.73096
G1 X143.378 Y128.426 E6.76197
G1 X143.605 Y128.376 E6.77217
G1 X144.032 Y128.289 E6.79131
G1 X144.261 Y128.246 E6.80154
G1 X144.775 Y128.159 E6.82442
G1 X145.015 Y128.123 E6.83508
G1 X145.404 Y128.071 E6.85231
G1 X145.651 Y128.042 E6.86323
G1 X146.502 Y127.959 E6.90077
G1 X146.737 Y127.94 E6.91112
G1 X146.957 Y127.926 E6.92079
G1 X147.174 Y127.916 E6.93033
G1 X147.698 Y127.899 E6.95335
G1 X147.936 Y127.895 E6.9638
G1 X148.538 Y127.896 E6.99023
G1 X148.795 Y127.901 E7.00151
G1 X149.469 Y127.927 E7.03113
G1 X149.706 Y127.94 E7.04155
G1 X149.995 Y127.961 E7.05427
G1 X150.192 Y127.979 E7.06295
G1 X150.587 Y128.019 E7.08039
G1 X150.815 Y128.045 E7.09046
G1 X151.306 Y128.112 E7.11222
G1 X151.83 Y128.19 E7.13548
G1 X151.999 Y128.217 E7.14299
G1 X152.2 Y128.252 E7.15195
G1 X152.407 Y128.292 E7.1612
G1 X152.821 Y128.377 E7.17976
G1 X153.055 Y128.429 E7.19028
G1 X153.574 Y128.555 E7.21373
G1 X153.96 Y128.653 E7.23121
G1 X154.132 Y128.699 E7.23903
G1 X154.42 Y128.78 E7.25217
G1 X154.632 Y128.843 E7.26188
G1 X154.974 Y128.951 E7.27762
G1 X155.183 Y129.021 E7.2873
G1 X155.623 Y129.176 E7.30778
G1 X156.099 Y129.351 E7.33004
G1 X156.271 Y129.417 E7.33813
G1 X156.673 Y129.577 E7.35713
G1 X156.872 Y129.659 E7.36658
G1 X157.077 Y129.748 E7.37639
G1 X157.267 Y129.834 E7.38555
G1 X157.909 Y130.137 E7.41671
G1 X158.192 Y130.275 E7.43054
G1 X158.336 Y130.347 E7.4376
G1 X158.58 Y130.473 E7.44966
G1 X158.781 Y130.581 E7.45968
G1 X159.173 Y130.8 E7.47939
G1 X159.377 Y130.919 E7.48976
G1 X159.859 Y131.21 E7.51448
G1 X160.064 Y131.338 E7.52509
G1 X160.455 Y131.593 E7.54559
G1 X160.647 Y131.724 E7.55579
G1 X161.108 Y132.047 E7.5805
G1 X161.286 Y132.176 E7.59015
G1 X161.68 Y132.471 E7.61176
G1 X161.876 Y132.622 E7.62263
G1 X162.267 Y132.937 E7.64467
G1 X162.449 Y133.089 E7.65508
G1 X162.621 Y133.239 E7.6651
G1 X163.009 Y133.584 E7.68789
G1 X163.128 Y133.692 E7.69495
G1 X163.551 Y134.086 E7.72033
G1 X163.73 Y134.258 E7.73123
G1 X163.992 Y134.52 E7.7475
G1 X164.131 Y134.664 E7.75628
G1 X164.453 Y135.005 E7.77687
G1 X164.621 Y135.189 E7.78781
G1 X164.991 Y135.61 E7.81242
G1 X165.147 Y135.795 E7.82304
G1 X165.428 Y136.138 E7.84251
G1 X165.556 Y136.298 E7.85151
G1 X165.685 Y136.466 E7.86081
G1 X165.953 Y136.827 E7.88054
G1 X166.003 Y136.892 E7.88415
G1 X166.176 Y137.129 E7.89703
G1 X166.459 Y137.534 E7.91872
G1 X166.555 Y137.675 E7.92621
G1 X166.734 Y137.945 E7.94043
G1 X166.886 Y138.185 E7.9529
G1 X167.321 Y138.903 E7.98976
G1 X167.434 Y139.096 E7.99958
G1 X167.537 Y139.279 E8.0088
G1 X167.653 Y139.496 E8.0196
G1 X168.04 Y140.244 E8.05658
G1 X168.137 Y140.437 E8.06606
G1 X168.25 Y140.673 E8.07755
G1 X168.348 Y140.888 E8.08792
G1 X168.531 Y141.306 E8.10795
G1 X168.612 Y141.499 E8.11714
G1 X168.716 Y141.758 E8.1294
G1 X168.905 Y142.245 E8.15233
G1 X168.996 Y142.486 E8.16364
G1 X169.113 Y142.814 E8.17893
G1 X169.178 Y143.005 E8.18779
G1 X169.3 Y143.381 E8.20514
G1 X169.397 Y143.704 E8.21995
G1 X169.517 Y144.146 E8.24006
G1 X169.586 Y144.394 E8.25136
G1 X169.646 Y144.627 E8.26192
G1 X169.724 Y144.95 E8.27651
G1 X169.769 Y145.151 E8.28555
G1 X169.902 Y145.783 E8.31391
G1 X169.95 Y146.031 E8.325
G1 X170.048 Y146.598 E8.35026
G1 X170.083 Y146.823 E8.36026
G1 X170.112 Y147.031 E8.36948
G1 X170.138 Y147.238 E8.37864
G1 X170.197 Y147.787 E8.40288
G1 X170.233 Y148.168 E8.41968
G1 X170.248 Y148.347 E8.42757
G1 X170.279 Y148.799 E8.44746
G1 X170.29 Y149.01 E8.45673
G1 X170.3 Y149.271 E8.4682
G1 X170.305 Y149.488 E8.47773
G1 X170.308 Y149.907 E8.49613
G1 X170.303 Y150.337 E8.51501
G1 X170.303 Y150.473 E8.52098
G1 X170.299 Y150.709 E8.53134
G1 X170.289 Y151.005 E8.54434
G1 X170.28 Y151.201 E8.55296
G1 X170.258 Y151.556 E8.56857
G1 X170.24 Y151.786 E8.5787
G1 X170.214 Y152.059 E8.59074
G1 X170.155 Y152.601 E8.61468
G1 X170.133 Y152.785 E8.62281
G1 X170.092 Y153.088 E8.63624
G1 X170.054 Y153.334 E8.64716
G1 X169.927 Y154.073 E8.68008
G1 X169.882 Y154.313 E8.69081
G1 X169.769 Y154.856 E8.71516
G1 X169.719 Y155.077 E8.7251
G1 X169.665 Y155.3 E8.73518
G1 X169.607 Y155.523 E8.74529
G1 X169.42 Y156.197 E8.776
G1 X169.345 Y156.448 E8.7875
G1 X169.154 Y157.048 E8.81515
G1 X169.091 Y157.237 E8.82389
G1 X169.007 Y157.477 E8.83506
G1 X168.92 Y157.713 E8.8461
G1 X168.685 Y158.314 E8.87443
G1 X168.587 Y158.551 E8.88569
G1 X168.334 Y159.134 E8.91359
G1 X168.247 Y159.325 E8.92281
G1 X168.065 Y159.712 E8.94158
G1 X167.969 Y159.909 E8.9512
G1 X167.83 Y160.182 E8.96465
G1 X167.733 Y160.366 E8.97379
G1 X167.586 Y160.632 E8.98713
G1 X167.385 Y160.983 E9.00489
G1 X167.284 Y161.165 E9.01403
G1 X167.166 Y161.369 E9.02437
G1 X167.025 Y161.603 E9.03637
G1 X166.922 Y161.769 E9.04494
G1 X166.661 Y162.176 E9.06617
G1 X166.511 Y162.399 E9.07797
G1 X166.212 Y162.828 E9.10093
G1 X166.088 Y163.001 E9.11027
G1 X165.781 Y163.414 E9.13287
G1 X165.629 Y163.61 E9.14375
G1 X165.325 Y163.99 E9.16512
G1 X165.192 Y164.152 E9.17432
G1 X164.885 Y164.513 E9.19513
G1 X164.655 Y164.773 E9.21037
G1 X164.324 Y165.134 E9.23187
G1 X164.153 Y165.314 E9.24277
G1 X163.773 Y165.7 E9.26655
G1 X163.611 Y165.86 E9.27655
G1 X163.26 Y166.194 E9.29782
G1 X163.082 Y166.357 E9.30842
G1 X162.752 Y166.65 E9.32779
G1 X162.575 Y166.802 E9.33803
G1 X162.281 Y167.045 E9.35478
G1 X162.034 Y167.245 E9.36873
G1 X161.87 Y167.374 E9.37789
G1 X161.246 Y167.849 E9.41232
G1 X161.069 Y167.979 E9.42197
G1 X160.881 Y168.113 E9.4321
G1 X160.686 Y168.247 E9.44249
G1 X160.081 Y168.648 E9.47436
G1 X159.87 Y168.782 E9.48533
G1 X159.661 Y168.91 E9.49609
G1 X159.497 Y169.008 E9.50448
G1 X159.022 Y169.28 E9.52851
G1 X158.729 Y169.44 E9.54316
G1 X158.121 Y169.76 E9.57333
G1 X157.91 Y169.866 E9.5837
G1 X157.693 Y169.971 E9.59428
G1 X157.498 Y170.062 E9.60373
G1 X156.97 Y170.297 E9.6291
G1 X156.801 Y170.369 E9.63717
G1 X156.082 Y170.659 E9.6712
