;FLAVOR:Marlin
;TIME:812
;Filament used: 0.320792m
;Layer height: 0.2
;MINX:138.36
;MINY:138.567
;MINZ:0.2
;MAXX:161.639
;MAXY:161.517
;MAXZ:13.6
;Generated with Cura_SteamEngine 4.7.0
M140 S65
M105
M190 S65
M104 S240
M105
M109 S240
M82 ;absolute extrusion mode
M201 X500.00 Y500.00 Z100.00 E5000.00 ;Setup machine max acceleration
M203 X500.00 Y500.00 Z10.00 E50.00 ;Setup machine max feedrate
M204 P500.00 R1000.00 T500.00 ;Setup Print/Retract/Travel acceleration
M205 X8.00 Y8.00 Z0.40 E5.00 ;Setup Jerk
M220 S100 ;Reset Feedrate
M221 S100 ;Reset Flowrate

G28 ;Home

G92 E0 ;Reset Extruder
G1 Z2.0 F3000 ;Move Z Axis up
G1 X10.1 Y20 Z0.28 F5000.0 ;Move to start position
G1 X10.1 Y200.0 Z0.28 F1500.0 E15 ;Draw the first line
G1 X10.4 Y200.0 Z0.28 F5000.0 ;Move to side a little
G1 X10.4 Y20 Z0.28 F1500.0 E30 ;Draw the second line
G92 E0 ;Reset Extruder
G1 Z2.0 F3000 ;Move Z Axis up

G92 E0
G92 E0
G1 F2100 E-3.5
;LAYER_COUNT:69
;LAYER:0
M107
M204 S450
G0 F6000 X141.694 Y141.726 Z0.2
M204 S250
;TYPE:SKIRT
G1 F2100 E0
G1 F900 X141.867 Y141.554 E0.01071
G1 X142.011 Y141.415 E0.0195
G1 X142.181 Y141.257 E0.02969
G1 X142.37 Y141.089 E0.04079
G1 X142.54 Y140.944 E0.0506
G1 X142.729 Y140.79 E0.0613
G1 X142.91 Y140.648 E0.0714
G1 X143.1 Y140.504 E0.08187
G1 X143.294 Y140.364 E0.09237
G1 X143.518 Y140.21 E0.10431
G1 X143.706 Y140.087 E0.11417
G1 X143.898 Y139.967 E0.12411
G1 X144.096 Y139.848 E0.13425
G1 X144.294 Y139.734 E0.14428
G1 X144.505 Y139.618 E0.15485
G1 X144.711 Y139.51 E0.16507
G1 X144.911 Y139.41 E0.17488
G1 X145.14 Y139.301 E0.18602
G1 X145.35 Y139.207 E0.19612
G1 X145.593 Y139.105 E0.20769
G1 X145.808 Y139.02 E0.21784
G1 X146.463 Y138.804 E0.24812
G1 X147.128 Y138.667 E0.27793
G1 X147.4 Y138.627 E0.29
G1 X148.086 Y138.567 E0.32023
G1 X148.775 Y138.586 E0.35049
G1 X149.457 Y138.685 E0.38075
G1 X150.001 Y138.829 E0.40545
G1 X150.138 Y138.783 E0.4118
G1 X150.812 Y138.64 E0.44205
G1 X151.498 Y138.575 E0.4723
G1 X152.4 Y138.611 E0.51193
G1 X152.7 Y138.646 E0.52519
G1 X153.379 Y138.765 E0.55546
G1 X154.178 Y139.015 E0.59221
G1 X154.395 Y139.1 E0.60245
G1 X154.687 Y139.223 E0.61636
G1 X154.896 Y139.318 E0.62644
G1 X155.094 Y139.413 E0.63608
G1 X155.292 Y139.512 E0.6458
G1 X155.487 Y139.614 E0.65546
G1 X155.699 Y139.73 E0.66607
G1 X155.938 Y139.868 E0.67818
G1 X156.135 Y139.988 E0.68831
G1 X156.291 Y140.086 E0.6964
G1 X156.478 Y140.208 E0.7062
G1 X156.697 Y140.358 E0.71786
G1 X156.885 Y140.493 E0.72802
G1 X157.082 Y140.641 E0.73884
G1 X157.271 Y140.789 E0.74937
G1 X157.477 Y140.958 E0.76107
G1 X157.646 Y141.103 E0.77085
G1 X157.805 Y141.244 E0.78018
G1 X157.972 Y141.398 E0.79015
G1 X158.157 Y141.577 E0.80145
G1 X158.329 Y141.75 E0.81216
G1 X158.46 Y141.886 E0.82046
G1 X158.613 Y142.05 E0.8303
G1 X158.822 Y142.286 E0.84414
G1 X158.967 Y142.459 E0.85405
G1 X158.963 Y142.462 E0.85427
G1 X159.112 Y142.636 E0.86433
G1 X159.254 Y142.819 E0.8745
G1 X159.389 Y143 E0.88441
G1 X159.523 Y143.187 E0.89451
G1 X159.641 Y143.358 E0.90363
G1 X159.77 Y143.552 E0.91386
G1 X159.922 Y143.792 E0.92633
G1 X160.041 Y143.991 E0.93651
G1 X160.147 Y144.175 E0.94584
G1 X160.256 Y144.373 E0.95576
G1 X160.37 Y144.592 E0.9666
G1 X160.475 Y144.803 E0.97695
G1 X160.587 Y145.041 E0.9885
G1 X160.681 Y145.253 E0.99868
G1 X160.763 Y145.446 E1.00788
G1 X160.853 Y145.67 E1.01848
G1 X160.937 Y145.894 E1.02898
G1 X161.011 Y146.102 E1.03868
G1 X161.104 Y146.384 E1.05171
G1 X161.171 Y146.607 E1.06194
G1 X161.237 Y146.845 E1.07278
G1 X161.294 Y147.068 E1.08289
G1 X161.336 Y147.242 E1.09074
G1 X161.387 Y147.47 E1.101
G1 X161.437 Y147.718 E1.11211
G1 X161.479 Y147.952 E1.12255
G1 X161.515 Y148.18 E1.13268
G1 X161.546 Y148.402 E1.14252
G1 X161.578 Y148.683 E1.15494
G1 X161.599 Y148.913 E1.16508
G1 X161.615 Y149.133 E1.17476
G1 X161.628 Y149.374 E1.18536
G1 X161.636 Y149.613 E1.19586
G1 X161.639 Y149.834 E1.20556
G1 X161.637 Y150.093 E1.21693
G1 X161.63 Y150.326 E1.22717
G1 X161.62 Y150.536 E1.2364
G1 X161.605 Y150.765 E1.24647
G1 X161.586 Y150.992 E1.25647
G1 X161.561 Y151.232 E1.26707
G1 X161.519 Y151.55 E1.28115
G1 X161.484 Y151.77 E1.29093
G1 X161.419 Y152.134 E1.30716
G1 X161.355 Y152.44 E1.32089
G1 X161.302 Y152.663 E1.33095
G1 X161.246 Y152.881 E1.34083
G1 X161.184 Y153.104 E1.35099
G1 X161.109 Y153.353 E1.36241
G1 X161.037 Y153.574 E1.37262
G1 X160.97 Y153.768 E1.38163
G1 X160.888 Y153.993 E1.39214
G1 X160.789 Y154.247 E1.40411
G1 X160.703 Y154.453 E1.41391
G1 X160.615 Y154.653 E1.4235
G1 X160.514 Y154.872 E1.43409
G1 X160.395 Y155.115 E1.44597
G1 X160.293 Y155.312 E1.45571
G1 X160.191 Y155.5 E1.4651
G1 X160.077 Y155.702 E1.47528
G1 X159.961 Y155.899 E1.48532
G1 X159.839 Y156.097 E1.49553
G1 X159.688 Y156.33 E1.50772
G1 X159.559 Y156.519 E1.51777
G1 X159.42 Y156.714 E1.52828
G1 X159.281 Y156.901 E1.53851
G1 X159.162 Y157.055 E1.54705
G1 X159.018 Y157.236 E1.55721
G1 X158.834 Y157.457 E1.56983
G1 X158.676 Y157.637 E1.58035
G1 X158.544 Y157.782 E1.58896
G1 X158.392 Y157.944 E1.59871
G1 X158.185 Y158.154 E1.61166
G1 X158.012 Y158.321 E1.62221
G1 X157.855 Y158.467 E1.63163
G1 X157.689 Y158.616 E1.64142
G1 X157.478 Y158.797 E1.65362
G1 X157.298 Y158.944 E1.66383
G1 X157.17 Y159.045 E1.67099
G1 X156.986 Y159.187 E1.68119
G1 X156.743 Y159.365 E1.69441
G1 X156.547 Y159.501 E1.70489
G1 X156.385 Y159.61 E1.71346
G1 X156.19 Y159.736 E1.72365
G1 X155.927 Y159.896 E1.73717
G1 X155.734 Y160.007 E1.74694
G1 X155.572 Y160.097 E1.75508
G1 X155.368 Y160.206 E1.76523
G1 X155.135 Y160.324 E1.7767
G1 X154.92 Y160.427 E1.78717
G1 X154.678 Y160.537 E1.79884
G1 X154.471 Y160.625 E1.80871
G1 X154.289 Y160.698 E1.81732
G1 X154.064 Y160.785 E1.82791
G1 X153.816 Y160.875 E1.8395
G1 X153.605 Y160.946 E1.84927
G1 X153.366 Y161.021 E1.86027
G1 X153.135 Y161.088 E1.87083
G1 X152.883 Y161.155 E1.88228
G1 X152.669 Y161.207 E1.89194
G1 X152.474 Y161.251 E1.90072
G1 X152.238 Y161.3 E1.9113
G1 X151.998 Y161.345 E1.92202
G1 X151.768 Y161.383 E1.93226
G1 X151.517 Y161.419 E1.94339
G1 X151.295 Y161.446 E1.95321
G1 X151.069 Y161.469 E1.96318
G1 X150.84 Y161.488 E1.97327
G1 X150.575 Y161.504 E1.98493
G1 X150.339 Y161.513 E1.99529
G1 X150.113 Y161.517 E2.00522
G1 X149.888 Y161.517 E2.0151
G1 X149.643 Y161.512 E2.02586
G1 X149.401 Y161.502 E2.03649
G1 X149.179 Y161.489 E2.04625
G1 X148.951 Y161.471 E2.05629
G1 X148.681 Y161.443 E2.06821
G1 X148.457 Y161.415 E2.07812
G1 X148.209 Y161.379 E2.08912
G1 X147.983 Y161.341 E2.09919
G1 X147.603 Y161.269 E2.11617
G1 X147.258 Y161.192 E2.13168
G1 X147.043 Y161.137 E2.14143
G1 X146.838 Y161.08 E2.15077
G1 X146.607 Y161.012 E2.16134
G1 X146.382 Y160.941 E2.1717
G1 X146.172 Y160.87 E2.18143
G1 X145.953 Y160.792 E2.19164
G1 X145.728 Y160.706 E2.20221
G1 X145.512 Y160.618 E2.21245
G1 X145.304 Y160.529 E2.22239
G1 X145.065 Y160.42 E2.23392
G1 X144.851 Y160.317 E2.24435
G1 X144.628 Y160.204 E2.25532
G1 X144.424 Y160.095 E2.26548
G1 X144.222 Y159.982 E2.27564
G1 X144.029 Y159.869 E2.28546
G1 X143.831 Y159.748 E2.29564
G1 X143.637 Y159.624 E2.30575
G1 X143.435 Y159.489 E2.31642
G1 X143.236 Y159.35 E2.32708
G1 X143.019 Y159.191 E2.33889
G1 X142.838 Y159.052 E2.34891
G1 X142.681 Y158.927 E2.35772
G1 X142.5 Y158.778 E2.36801
G1 X142.309 Y158.614 E2.37906
G1 X142.144 Y158.466 E2.38879
G1 X141.96 Y158.294 E2.39985
G1 X141.789 Y158.127 E2.41035
G1 X141.621 Y157.956 E2.42087
G1 X141.468 Y157.794 E2.43065
G1 X141.3 Y157.609 E2.44162
G1 X141.142 Y157.427 E2.45221
G1 X140.99 Y157.244 E2.46265
G1 X140.846 Y157.064 E2.47277
G1 X140.726 Y156.909 E2.48138
G1 X140.587 Y156.723 E2.49157
G1 X140.434 Y156.509 E2.50312
G1 X140.304 Y156.318 E2.51326
G1 X140.158 Y156.092 E2.52508
G1 X140.036 Y155.894 E2.53529
G1 X139.91 Y155.68 E2.54619
G1 X139.798 Y155.48 E2.55625
G1 X139.717 Y155.329 E2.56378
G1 X139.613 Y155.13 E2.57364
G1 X139.469 Y154.835 E2.58805
G1 X139.37 Y154.617 E2.59856
G1 X139.289 Y154.432 E2.60743
G1 X139.205 Y154.229 E2.61707
G1 X139.136 Y154.054 E2.62533
G1 X139.05 Y153.826 E2.63603
G1 X138.945 Y153.524 E2.65007
G1 X138.875 Y153.303 E2.66024
G1 X138.813 Y153.094 E2.66981
G1 X138.751 Y152.87 E2.68002
G1 X138.69 Y152.628 E2.69097
G1 X138.638 Y152.404 E2.70107
G1 X138.588 Y152.167 E2.7117
G1 X138.545 Y151.94 E2.72185
G1 X138.506 Y151.711 E2.73205
G1 X138.473 Y151.49 E2.74186
G1 X138.442 Y151.25 E2.75248
G1 X138.416 Y151.009 E2.76312
G1 X138.395 Y150.764 E2.77392
G1 X138.38 Y150.537 E2.78391
G1 X138.37 Y150.332 E2.79292
G1 X138.363 Y150.11 E2.80267
G1 X138.36 Y149.847 E2.81422
G1 X138.363 Y149.613 E2.82449
G1 X138.373 Y149.34 E2.83648
G1 X138.387 Y149.102 E2.84695
G1 X138.401 Y148.92 E2.85497
G1 X138.421 Y148.697 E2.8648
G1 X138.454 Y148.406 E2.87765
G1 X138.486 Y148.177 E2.8878
G1 X138.518 Y147.973 E2.89687
G1 X138.558 Y147.745 E2.90703
G1 X138.607 Y147.499 E2.91805
G1 X138.657 Y147.271 E2.92829
G1 X138.71 Y147.05 E2.93827
G1 X138.77 Y146.819 E2.94875
G1 X138.84 Y146.571 E2.96006
G1 X138.905 Y146.359 E2.9698
G1 X138.98 Y146.13 E2.98038
G1 X139.057 Y145.911 E2.99057
G1 X139.146 Y145.675 E3.00164
G1 X139.232 Y145.46 E3.01181
G1 X139.317 Y145.258 E3.02143
G1 X139.411 Y145.046 E3.03161
G1 X139.528 Y144.798 E3.04365
G1 X139.631 Y144.592 E3.05376
G1 X139.726 Y144.409 E3.06282
G1 X139.837 Y144.205 E3.07301
G1 X139.964 Y143.984 E3.0842
G1 X140.083 Y143.786 E3.09434
G1 X140.204 Y143.593 E3.10435
G1 X140.331 Y143.399 E3.11453
G1 X140.464 Y143.204 E3.12489
G1 X140.598 Y143.016 E3.13502
G1 X140.764 Y142.794 E3.14719
G1 X140.907 Y142.612 E3.15736
G1 X141.046 Y142.442 E3.167
G1 X141.193 Y142.268 E3.177
G0 F810 X141.196 Y142.265
G0 X141.361 Y142.078
G0 X141.515 Y141.911
G0 X141.694 Y141.726
M204 S450
G0 F6000 X142.004 Y142.038
M204 S250
G1 F900 X142.177 Y141.866 E3.18771
G1 X142.311 Y141.737 E3.19587
G1 X142.481 Y141.579 E3.20606
G1 X142.656 Y141.423 E3.21636
G1 X142.826 Y141.278 E3.22617
G1 X143 Y141.136 E3.23603
G1 X143.181 Y140.994 E3.24613
G1 X143.357 Y140.861 E3.25581
G1 X143.551 Y140.721 E3.26631
G1 X143.759 Y140.579 E3.27737
G1 X143.947 Y140.456 E3.28723
G1 X144.125 Y140.344 E3.29647
G1 X144.323 Y140.225 E3.30661
G1 X144.506 Y140.119 E3.31589
G1 X144.717 Y140.003 E3.32647
G1 X144.907 Y139.904 E3.33587
G1 X145.107 Y139.804 E3.34569
G1 X145.32 Y139.703 E3.35604
G1 X145.53 Y139.609 E3.36614
G1 X145.755 Y139.514 E3.37686
G1 X145.97 Y139.429 E3.38701
G1 X146.6 Y139.223 E3.41611
G1 X147.192 Y139.103 E3.44263
G1 X147.464 Y139.063 E3.4547
G1 X148.124 Y139.006 E3.48379
G1 X148.787 Y139.029 E3.51291
G1 X149.442 Y139.132 E3.54202
G1 X150.007 Y139.292 E3.5678
G1 X150.4 Y139.17 E3.58587
G1 X151.052 Y139.051 E3.61497
G1 X151.714 Y139.011 E3.64408
G1 X152.349 Y139.048 E3.67201
G1 X152.649 Y139.083 E3.68527
G1 X153.302 Y139.199 E3.71439
G1 X154.018 Y139.425 E3.74735
G1 X154.235 Y139.51 E3.75758
G1 X154.505 Y139.624 E3.77045
G1 X154.714 Y139.719 E3.78053
G1 X154.898 Y139.807 E3.78948
G1 X155.096 Y139.906 E3.7992
G1 X155.276 Y140 E3.80812
G1 X155.488 Y140.116 E3.81873
G1 X155.709 Y140.244 E3.82994
G1 X155.906 Y140.364 E3.84007
G1 X156.05 Y140.455 E3.84755
G1 X156.237 Y140.577 E3.85735
G1 X156.44 Y140.716 E3.86815
G1 X156.628 Y140.851 E3.87831
G1 X156.811 Y140.988 E3.88835
G1 X157 Y141.136 E3.89889
G1 X157.19 Y141.292 E3.90968
G1 X157.359 Y141.437 E3.91946
G1 X157.507 Y141.568 E3.92813
G1 X157.674 Y141.722 E3.93811
G1 X157.845 Y141.887 E3.94854
G1 X158.017 Y142.06 E3.95925
G1 X158.139 Y142.186 E3.96695
G1 X158.292 Y142.35 E3.9768
G1 X158.485 Y142.569 E3.98961
G1 X158.63 Y142.742 E3.99952
G1 X158.628 Y142.744 E3.99965
G1 X158.764 Y142.905 E4.0089
G1 X158.906 Y143.088 E4.01907
G1 X159.032 Y143.256 E4.02829
G1 X159.166 Y143.443 E4.03839
G1 X159.275 Y143.602 E4.04685
G1 X159.404 Y143.796 E4.05708
G1 X159.544 Y144.018 E4.0686
G1 X159.663 Y144.217 E4.07878
G1 X159.761 Y144.388 E4.08744
G1 X159.87 Y144.586 E4.09736
G1 X159.976 Y144.788 E4.10738
G1 X160.081 Y144.999 E4.11772
G1 X160.185 Y145.22 E4.12845
G1 X160.279 Y145.432 E4.13863
G1 X160.354 Y145.61 E4.14711
G1 X160.444 Y145.834 E4.15771
G1 X160.523 Y146.041 E4.16743
G1 X160.597 Y146.249 E4.17713
G1 X160.682 Y146.51 E4.18918
G1 X160.749 Y146.733 E4.1994
G1 X160.811 Y146.954 E4.20948
G1 X160.868 Y147.177 E4.21958
G1 X160.906 Y147.338 E4.22685
G1 X160.957 Y147.566 E4.2371
G1 X161.003 Y147.795 E4.24736
G1 X161.045 Y148.029 E4.2578
G1 X161.079 Y148.24 E4.26718
G1 X161.11 Y148.462 E4.27702
G1 X161.14 Y148.723 E4.28855
G1 X161.161 Y148.953 E4.29869
G1 X161.176 Y149.157 E4.30767
G1 X161.189 Y149.398 E4.31827
G1 X161.196 Y149.619 E4.32798
G1 X161.199 Y149.84 E4.33768
G1 X161.198 Y150.08 E4.34822
G1 X161.191 Y150.313 E4.35845
G1 X161.181 Y150.507 E4.36698
G1 X161.166 Y150.736 E4.37706
G1 X161.148 Y150.947 E4.38635
G1 X161.123 Y151.187 E4.39695
G1 X161.085 Y151.481 E4.40996
G1 X161.029 Y151.825 E4.42526
G1 X160.987 Y152.055 E4.43553
G1 X160.927 Y152.339 E4.44827
G1 X160.874 Y152.562 E4.45834
G1 X160.822 Y152.763 E4.46745
G1 X160.76 Y152.986 E4.47761
G1 X160.69 Y153.217 E4.48821
G1 X160.618 Y153.438 E4.49841
G1 X160.557 Y153.617 E4.50672
G1 X160.475 Y153.842 E4.51723
G1 X160.382 Y154.078 E4.52837
G1 X160.296 Y154.284 E4.53817
G1 X160.215 Y154.468 E4.54699
G1 X160.114 Y154.687 E4.55758
G1 X160.004 Y154.913 E4.56862
G1 X159.902 Y155.11 E4.57836
G1 X159.808 Y155.284 E4.58704
G1 X159.694 Y155.486 E4.59722
G1 X159.586 Y155.668 E4.60651
G1 X159.464 Y155.866 E4.61672
G1 X159.325 Y156.082 E4.628
G1 X159.196 Y156.271 E4.63805
G1 X159.067 Y156.451 E4.64777
G1 X158.928 Y156.638 E4.658
G1 X158.818 Y156.781 E4.66592
G1 X158.674 Y156.962 E4.67608
G1 X158.503 Y157.166 E4.68776
G1 X158.345 Y157.346 E4.69828
G1 X158.223 Y157.481 E4.70627
G1 X158.071 Y157.643 E4.71602
G1 X157.88 Y157.837 E4.72797
G1 X157.707 Y158.004 E4.73853
G1 X157.561 Y158.14 E4.74729
G1 X157.395 Y158.289 E4.75708
G1 X157.2 Y158.456 E4.76835
G1 X157.02 Y158.603 E4.77856
G1 X156.901 Y158.697 E4.78521
G1 X156.717 Y158.839 E4.79542
G1 X156.492 Y159.004 E4.80767
G1 X156.296 Y159.14 E4.81814
G1 X156.146 Y159.241 E4.82608
G1 X155.951 Y159.367 E4.83627
G1 X155.708 Y159.515 E4.84876
G1 X155.515 Y159.626 E4.85854
G1 X155.365 Y159.709 E4.86607
G1 X155.161 Y159.818 E4.87622
G1 X154.945 Y159.927 E4.88684
G1 X154.73 Y160.03 E4.89731
G1 X154.506 Y160.132 E4.90812
G1 X154.299 Y160.22 E4.91799
G1 X154.131 Y160.288 E4.92595
G1 X153.906 Y160.375 E4.93654
G1 X153.676 Y160.458 E4.94727
G1 X153.465 Y160.529 E4.95705
G1 X153.243 Y160.598 E4.96725
G1 X153.012 Y160.665 E4.97781
G1 X152.779 Y160.727 E4.9884
G1 X152.565 Y160.779 E4.99807
G1 X152.384 Y160.82 E5.00622
G1 X152.148 Y160.869 E5.0168
G1 X151.927 Y160.91 E5.02667
G1 X151.697 Y160.948 E5.0369
G1 X151.464 Y160.982 E5.04724
G1 X151.242 Y161.009 E5.05706
G1 X151.033 Y161.03 E5.06628
G1 X150.804 Y161.049 E5.07637
G1 X150.559 Y161.064 E5.08714
G1 X150.323 Y161.073 E5.09751
G1 X150.113 Y161.077 E5.10673
G1 X149.888 Y161.077 E5.11661
G1 X149.661 Y161.072 E5.12658
G1 X149.419 Y161.062 E5.13721
G1 X149.213 Y161.05 E5.14627
G1 X148.985 Y161.032 E5.15631
G1 X148.736 Y161.007 E5.1673
G1 X148.512 Y160.979 E5.17721
G1 X148.282 Y160.945 E5.18742
G1 X148.056 Y160.907 E5.19748
G1 X147.686 Y160.837 E5.21401
G1 X147.367 Y160.765 E5.22837
G1 X147.152 Y160.71 E5.23811
G1 X146.962 Y160.658 E5.24676
G1 X146.731 Y160.59 E5.25733
G1 X146.522 Y160.524 E5.26696
G1 X146.312 Y160.453 E5.27669
G1 X146.11 Y160.381 E5.2861
G1 X145.885 Y160.295 E5.29668
G1 X145.685 Y160.214 E5.30615
G1 X145.477 Y160.125 E5.31609
G1 X145.256 Y160.024 E5.32675
G1 X145.042 Y159.921 E5.33718
G1 X144.835 Y159.816 E5.34737
G1 X144.631 Y159.707 E5.35753
G1 X144.444 Y159.602 E5.36694
G1 X144.251 Y159.489 E5.37676
G1 X144.068 Y159.377 E5.38618
G1 X143.874 Y159.253 E5.39629
G1 X143.687 Y159.128 E5.40616
G1 X143.488 Y158.989 E5.41682
G1 X143.287 Y158.842 E5.42775
G1 X143.106 Y158.703 E5.43777
G1 X142.96 Y158.587 E5.44596
G1 X142.779 Y158.438 E5.45625
G1 X142.603 Y158.286 E5.46646
G1 X142.438 Y158.138 E5.47619
G1 X142.267 Y157.979 E5.48644
G1 X142.096 Y157.812 E5.49694
G1 X141.94 Y157.653 E5.50672
G1 X141.787 Y157.491 E5.5165
G1 X141.633 Y157.321 E5.52657
G1 X141.475 Y157.139 E5.53715
G1 X141.333 Y156.969 E5.54688
G1 X141.189 Y156.789 E5.557
G1 X141.078 Y156.645 E5.56498
G1 X140.939 Y156.459 E5.57517
