;FLAVOR:Marlin
;TIME:707
;Filament used: 0.286413m
;Layer height: 0.2
;MINX:135.929
;MINY:135.793
;MINZ:0.2
;MAXX:164.134
;MAXY:163.984
;MAXZ:13.6
;Generated with Cura_SteamEngine 4.7.0
M140 S65
M105
M190 S65
M104 S240
M105
M109 S240
M82 ;absolute extrusion mode
M201 X500.00 Y500.00 Z100.00 E5000.00 ;Setup machine max acceleration
M203 X500.00 Y500.00 Z10.00 E50.00 ;Setup machine max feedrate
M204 P500.00 R1000.00 T500.00 ;Setup Print/Retract/Travel acceleration
M205 X8.00 Y8.00 Z0.40 E5.00 ;Setup Jerk
M220 S100 ;Reset Feedrate
M221 S100 ;Reset Flowrate

G28 ;Home

G92 E0 ;Reset Extruder
G1 Z2.0 F3000 ;Move Z Axis up
G1 X10.1 Y20 Z0.28 F5000.0 ;Move to start position
G1 X10.1 Y200.0 Z0.28 F1500.0 E15 ;Draw the first line
G1 X10.4 Y200.0 Z0.28 F5000.0 ;Move to side a little
G1 X10.4 Y20 Z0.28 F1500.0 E30 ;Draw the second line
G92 E0 ;Reset Extruder
G1 Z2.0 F3000 ;Move Z Axis up

G92 E0
G92 E0
G1 F2100 E-3.5
;LAYER_COUNT:69
;LAYER:0
M107
M204 S450
G0 F6000 X140.241 Y139.727 Z0.2
M204 S250
;TYPE:SKIRT
G1 F2100 E0
G1 F900 X140.721 Y139.279 E0.02883
G1 X140.808 Y139.204 E0.03387
G1 X141.121 Y138.947 E0.05165
G1 X141.35 Y138.768 E0.06441
G1 X141.596 Y138.583 E0.07792
G1 X141.995 Y138.294 E0.09955
G1 X142.543 Y137.928 E0.12849
G1 X142.687 Y137.84 E0.13589
G1 X143.001 Y137.658 E0.15183
G1 X143.431 Y137.42 E0.17341
G1 X144.064 Y137.104 E0.20447
G1 X144.441 Y136.935 E0.22261
G1 X145.078 Y136.68 E0.25273
G1 X145.474 Y136.54 E0.27117
G1 X145.772 Y136.44 E0.28497
G1 X145.929 Y136.391 E0.29219
G1 X146.283 Y136.29 E0.30835
G1 X146.536 Y136.223 E0.31984
G1 X146.846 Y136.147 E0.33386
G1 X147.22 Y136.063 E0.35069
G1 X147.903 Y135.939 E0.38116
G1 X148.384 Y135.872 E0.40248
G1 X149.143 Y135.801 E0.43595
G1 X149.31 Y135.793 E0.44329
G1 X150.131 Y135.793 E0.47934
G1 X150.947 Y135.874 E0.51534
G1 X151.844 Y136.057 E0.55553
G1 X152.163 Y136.141 E0.57001
G1 X154.268 Y136.715 E0.6658
G1 X154.408 Y136.75 E0.67214
G1 X155.28 Y136.979 E0.71172
G1 X156.062 Y137.226 E0.74773
G1 X156.817 Y137.548 E0.78376
G1 X157.537 Y137.942 E0.81979
G1 X158.04 Y138.275 E0.84628
G1 X158.307 Y138.466 E0.86069
G1 X158.572 Y138.663 E0.87519
G1 X158.903 Y138.92 E0.89359
G1 X159.442 Y139.377 E0.92461
G1 X159.745 Y139.656 E0.94269
G1 X160.224 Y140.134 E0.9724
G1 X160.543 Y140.479 E0.99303
G1 X160.975 Y140.985 E1.02224
G1 X161.257 Y141.343 E1.04225
G1 X161.66 Y141.9 E1.07244
G1 X161.784 Y142.087 E1.08229
G1 X161.981 Y142.397 E1.09841
G1 X162.22 Y142.794 E1.11876
G1 X162.364 Y143.043 E1.13138
G1 X162.522 Y143.327 E1.14565
G1 X162.888 Y144.069 E1.18198
G1 X162.998 Y144.331 E1.19445
G1 X163.132 Y144.664 E1.21021
G1 X163.261 Y145.005 E1.22622
G1 X163.417 Y145.447 E1.2468
G1 X163.609 Y146.065 E1.27521
G1 X163.667 Y146.281 E1.28503
G1 X163.753 Y146.632 E1.30089
G1 X163.848 Y147.058 E1.32005
G1 X163.972 Y147.75 E1.35092
G1 X164.017 Y148.079 E1.3655
G1 X164.054 Y148.387 E1.37912
G1 X164.087 Y148.719 E1.39377
G1 X164.127 Y149.428 E1.42494
G1 X164.134 Y149.902 E1.44576
G1 X164.116 Y150.594 E1.47615
G1 X164.092 Y150.949 E1.49177
G1 X164.062 Y151.284 E1.50653
G1 X164.022 Y151.655 E1.52292
G1 X163.933 Y152.268 E1.55011
G1 X163.864 Y152.645 E1.56694
G1 X163.688 Y153.409 E1.60136
G1 X163.589 Y153.761 E1.61741
G1 X163.499 Y154.059 E1.63108
G1 X163.426 Y154.286 E1.64155
G1 X163.327 Y154.575 E1.65496
G1 X163.193 Y154.945 E1.67224
G1 X162.919 Y155.61 E1.70381
G1 X162.791 Y155.887 E1.71721
G1 X162.653 Y156.172 E1.73111
G1 X162.474 Y156.524 E1.74845
G1 X162.136 Y157.126 E1.77876
G1 X161.927 Y157.465 E1.79625
G1 X161.549 Y158.027 E1.82598
G1 X161.29 Y158.38 E1.8452
G1 X160.836 Y158.945 E1.87702
G1 X160.562 Y159.258 E1.89529
G1 X160.358 Y159.484 E1.90865
G1 X160.117 Y159.74 E1.92409
G1 X159.626 Y160.22 E1.95424
G1 X159.33 Y160.487 E1.97174
G1 X158.789 Y160.936 E2.0026
G1 X158.492 Y161.162 E2.01899
G1 X158.224 Y161.357 E2.03354
G1 X158.027 Y161.495 E2.0441
G1 X157.778 Y161.663 E2.05729
G1 X157.593 Y161.783 E2.06697
G1 X157.274 Y161.98 E2.08343
G1 X156.901 Y162.199 E2.10242
G1 X156.288 Y162.526 E2.13292
G1 X155.999 Y162.665 E2.147
G1 X155.375 Y162.935 E2.17685
G1 X155.027 Y163.069 E2.19322
G1 X154.707 Y163.184 E2.20815
G1 X154.43 Y163.278 E2.22099
G1 X154.13 Y163.374 E2.23482
G1 X153.959 Y163.425 E2.24266
G1 X153.616 Y163.519 E2.25827
G1 X153.244 Y163.613 E2.27512
G1 X152.541 Y163.759 E2.30664
G1 X152.205 Y163.814 E2.32159
G1 X151.854 Y163.864 E2.33715
G1 X151.589 Y163.896 E2.34887
G1 X151.314 Y163.925 E2.36101
G1 X151.017 Y163.951 E2.3741
G1 X150.299 Y163.983 E2.40566
G1 X149.786 Y163.984 E2.42818
G1 X149.11 Y163.958 E2.45788
G1 X148.69 Y163.925 E2.47637
G1 X148.001 Y163.842 E2.50684
G1 X147.613 Y163.779 E2.5241
G1 X146.951 Y163.644 E2.55376
G1 X146.516 Y163.537 E2.57343
G1 X146.162 Y163.442 E2.58952
G1 X145.998 Y163.394 E2.59702
G1 X145.685 Y163.296 E2.61142
G1 X145.363 Y163.188 E2.62633
G1 X145.077 Y163.086 E2.63967
G1 X144.851 Y163.001 E2.65027
G1 X144.166 Y162.708 E2.68298
G1 X143.879 Y162.57 E2.69696
G1 X143.604 Y162.432 E2.71047
G1 X143.304 Y162.274 E2.72535
G1 X142.994 Y162.102 E2.74092
G1 X142.884 Y162.038 E2.7465
G1 X142.612 Y161.873 E2.76047
G1 X142.26 Y161.65 E2.77876
G1 X141.681 Y161.248 E2.80971
G1 X141.264 Y160.932 E2.83268
G1 X140.789 Y160.544 E2.85961
G1 X140.731 Y160.493 E2.863
G1 X140.43 Y160.215 E2.88099
G1 X140.07 Y159.866 E2.903
G1 X139.603 Y159.376 E2.93272
G1 X139.366 Y159.106 E2.94849
G1 X139.15 Y158.85 E2.9632
G1 X139.001 Y158.666 E2.97359
G1 X138.768 Y158.364 E2.99034
G1 X138.608 Y158.147 E3.00218
G1 X138.435 Y157.903 E3.01531
G1 X138.236 Y157.612 E3.03078
G1 X137.858 Y157.007 E3.0621
G1 X137.768 Y156.848 E3.07013
G1 X137.618 Y156.57 E3.08399
G1 X137.44 Y156.226 E3.101
G1 X137.275 Y155.89 E3.11743
G1 X137.189 Y155.704 E3.12643
G1 X137.054 Y155.394 E3.14127
G1 X136.957 Y155.16 E3.1524
G1 X136.851 Y154.892 E3.16505
G1 X136.809 Y154.78 E3.1703
G1 X136.687 Y154.432 E3.18649
G1 X136.572 Y154.079 E3.20279
G1 X136.463 Y153.717 E3.21939
G1 X136.414 Y153.54 E3.22745
G1 X136.336 Y153.238 E3.24114
G1 X136.257 Y152.905 E3.25617
G1 X136.124 Y152.216 E3.28698
G1 X136.069 Y151.851 E3.30318
G1 X136.025 Y151.511 E3.31824
G1 X136.005 Y151.328 E3.32632
G1 X135.977 Y151.014 E3.34016
G1 X135.95 Y150.637 E3.35675
G1 X135.929 Y149.942 E3.38728
G1 X135.934 Y149.495 E3.4069
G1 X135.971 Y148.792 E3.43781
G1 X136.004 Y148.445 E3.45311
G1 X136.039 Y148.136 E3.46677
G1 X136.09 Y147.751 E3.48382
G1 X136.211 Y147.06 E3.51462
G1 X136.287 Y146.712 E3.53026
G1 X136.457 Y146.061 E3.55979
G1 X136.574 Y145.676 E3.57746
G1 X136.683 Y145.342 E3.59289
G1 X136.795 Y145.022 E3.60777
G1 X136.917 Y144.695 E3.62309
G1 X137.035 Y144.398 E3.63712
G1 X137.281 Y143.84 E3.6639
G1 X137.341 Y143.716 E3.66995
G1 X137.522 Y143.363 E3.68736
G1 X137.716 Y143.006 E3.7052
G1 X138.07 Y142.412 E3.73556
G1 X138.351 Y141.983 E3.75807
G1 X138.548 Y141.696 E3.77336
G1 X138.684 Y141.506 E3.78362
G1 X139.093 Y140.98 E3.81287
G1 X139.415 Y140.598 E3.8348
G1 X139.727 Y140.257 E3.85509
G0 F810 X139.875 Y140.096
G0 X140.241 Y139.727
M204 S450
G0 F6000 X140.553 Y140.036
M204 S250
G1 F900 X141.009 Y139.612 E3.88243
G1 X141.096 Y139.537 E3.88747
G1 X141.392 Y139.294 E3.90429
G1 X141.621 Y139.115 E3.91705
G1 X141.854 Y138.939 E3.92987
G1 X142.253 Y138.65 E3.9515
G1 X142.773 Y138.304 E3.97892
G1 X142.917 Y138.216 E3.98633
G1 X143.214 Y138.043 E4.00142
G1 X143.644 Y137.805 E4.023
G1 X144.244 Y137.505 E4.05245
G1 X144.621 Y137.336 E4.07059
G1 X145.225 Y137.094 E4.09915
G1 X145.621 Y136.954 E4.11759
G1 X145.904 Y136.86 E4.13069
G1 X146.061 Y136.811 E4.13791
G1 X146.395 Y136.715 E4.15316
G1 X146.648 Y136.648 E4.16465
G1 X146.942 Y136.576 E4.17794
G1 X147.316 Y136.492 E4.19477
G1 X147.964 Y136.374 E4.22369
G1 X148.445 Y136.307 E4.24501
G1 X149.164 Y136.24 E4.27671
G1 X149.331 Y136.232 E4.28405
G1 X150.13 Y136.234 E4.31913
G1 X150.924 Y136.315 E4.35417
G1 X151.733 Y136.483 E4.39045
G1 X152.047 Y136.566 E4.40471
G1 X154.164 Y137.142 E4.50103
G1 X155.168 Y137.405 E4.5466
G1 X155.929 Y137.646 E4.58164
G1 X156.663 Y137.962 E4.61673
G1 X157.361 Y138.35 E4.65179
G1 X157.784 Y138.633 E4.67413
G1 X158.051 Y138.824 E4.68855
G1 X158.302 Y139.011 E4.70229
G1 X158.633 Y139.268 E4.72069
G1 X159.144 Y139.701 E4.75009
G1 X159.447 Y139.98 E4.76817
G1 X159.901 Y140.432 E4.7963
G1 X160.22 Y140.777 E4.81693
G1 X160.63 Y141.257 E4.84464
G1 X160.912 Y141.615 E4.86465
G1 X161.294 Y142.143 E4.89326
G1 X161.418 Y142.33 E4.90312
G1 X161.604 Y142.624 E4.91839
G1 X161.843 Y143.021 E4.93873
G1 X161.979 Y143.257 E4.95069
G1 X162.137 Y143.541 E4.96496
G1 X162.484 Y144.244 E4.99938
G1 X162.59 Y144.495 E5.01134
G1 X162.724 Y144.828 E5.0271
G1 X162.846 Y145.151 E5.04226
G1 X163.002 Y145.593 E5.06284
G1 X163.184 Y146.18 E5.08982
G1 X163.242 Y146.396 E5.09964
G1 X163.324 Y146.728 E5.11465
G1 X163.419 Y147.154 E5.13381
G1 X163.536 Y147.81 E5.16307
G1 X163.581 Y148.139 E5.17765
G1 X163.616 Y148.431 E5.19056
G1 X163.649 Y148.763 E5.20521
G1 X163.687 Y149.434 E5.23471
G1 X163.694 Y149.908 E5.25553
G1 X163.677 Y150.564 E5.28434
G1 X163.653 Y150.919 E5.29996
G1 X163.625 Y151.236 E5.31393
G1 X163.585 Y151.607 E5.33031
G1 X163.501 Y152.189 E5.35613
G1 X163.432 Y152.566 E5.37296
G1 X163.264 Y153.29 E5.40559
G1 X163.165 Y153.642 E5.42164
G1 X163.08 Y153.924 E5.43457
G1 X163.007 Y154.151 E5.44504
G1 X162.913 Y154.425 E5.45776
G1 X162.779 Y154.795 E5.47503
G1 X162.52 Y155.425 E5.50494
G1 X162.392 Y155.702 E5.51834
G1 X162.261 Y155.972 E5.53151
G1 X162.082 Y156.324 E5.54885
G1 X161.762 Y156.895 E5.57759
G1 X161.553 Y157.234 E5.59507
G1 X161.194 Y157.767 E5.62328
G1 X160.935 Y158.12 E5.64251
G1 X160.505 Y158.655 E5.67264
G1 X160.231 Y158.968 E5.6909
G1 X160.037 Y159.182 E5.70358
G1 X159.796 Y159.438 E5.71902
G1 X159.331 Y159.894 E5.74761
G1 X159.035 Y160.161 E5.76512
G1 X158.522 Y160.585 E5.79433
G1 X158.225 Y160.811 E5.81072
G1 X157.971 Y160.997 E5.82454
G1 X157.774 Y161.135 E5.8351
G1 X157.539 Y161.294 E5.84756
G1 X157.354 Y161.414 E5.85724
G1 X157.051 Y161.601 E5.87287
G1 X156.678 Y161.82 E5.89186
G1 X156.097 Y162.129 E5.92075
G1 X155.808 Y162.268 E5.93483
G1 X155.217 Y162.524 E5.96311
G1 X154.869 Y162.658 E5.97948
G1 X154.565 Y162.768 E5.99367
G1 X154.288 Y162.862 E6.00652
G1 X154.005 Y162.952 E6.01955
G1 X153.834 Y163.003 E6.02739
G1 X153.508 Y163.093 E6.04224
G1 X153.136 Y163.187 E6.05908
G1 X152.47 Y163.325 E6.08894
G1 X152.134 Y163.38 E6.10389
G1 X151.802 Y163.427 E6.11861
G1 X151.537 Y163.459 E6.13033
G1 X151.276 Y163.487 E6.14186
G1 X150.979 Y163.513 E6.15494
G1 X150.299 Y163.543 E6.18483
G1 X149.786 Y163.544 E6.20735
G1 X149.145 Y163.519 E6.23551
G1 X148.725 Y163.486 E6.25401
G1 X148.071 Y163.408 E6.28293
G1 X147.683 Y163.345 E6.30018
G1 X147.056 Y163.217 E6.32828
G1 X146.621 Y163.11 E6.34795
G1 X146.285 Y163.02 E6.36322
G1 X146.121 Y162.972 E6.37072
G1 X145.825 Y162.879 E6.38434
G1 X145.503 Y162.771 E6.39925
G1 X145.232 Y162.674 E6.41189
G1 X145.006 Y162.589 E6.42249
G1 X144.357 Y162.312 E6.45347
G1 X144.07 Y162.174 E6.46745
G1 X143.809 Y162.043 E6.48027
G1 X143.509 Y161.885 E6.49516
G1 X143.215 Y161.721 E6.50994
G1 X143.105 Y161.657 E6.51553
G1 X142.847 Y161.501 E6.52876
G1 X142.495 Y161.278 E6.54706
G1 X141.946 Y160.897 E6.5764
G1 X141.529 Y160.581 E6.59937
G1 X141.08 Y160.214 E6.62483
G1 X141.022 Y160.163 E6.62822
G1 X140.737 Y159.9 E6.64524
G1 X140.377 Y159.551 E6.66726
G1 X139.934 Y159.085 E6.69548
G1 X139.697 Y158.815 E6.71126
G1 X139.492 Y158.573 E6.72518
G1 X139.343 Y158.389 E6.73558
G1 X139.122 Y158.103 E6.75144
G1 X138.962 Y157.886 E6.76328
G1 X138.798 Y157.655 E6.77572
G1 X138.599 Y157.364 E6.7912
G1 X138.241 Y156.79 E6.8209
G1 X138.151 Y156.631 E6.82892
G1 X138.009 Y156.367 E6.84208
G1 X137.831 Y156.023 E6.85908
G1 X137.675 Y155.705 E6.87463
G1 X137.589 Y155.519 E6.88363
G1 X137.46 Y155.226 E6.89769
G1 X137.363 Y154.992 E6.90881
G1 X137.263 Y154.738 E6.92079
G1 X137.221 Y154.626 E6.92604
G1 X137.105 Y154.296 E6.9414
G1 X136.99 Y153.943 E6.9577
G1 X136.887 Y153.6 E6.97342
G1 X136.838 Y153.423 E6.98149
G1 X136.765 Y153.136 E6.99449
G1 X136.686 Y152.803 E7.00951
G1 X136.559 Y152.15 E7.03872
G1 X136.504 Y151.785 E7.05493
G1 X136.462 Y151.463 E7.06918
G1 X136.442 Y151.28 E7.07726
G1 X136.415 Y150.983 E7.09036
G1 X136.388 Y150.606 E7.10695
G1 X136.368 Y149.947 E7.1359
G1 X136.373 Y149.5 E7.15552
G1 X136.409 Y148.834 E7.1848
G1 X136.442 Y148.487 E7.20011
G1 X136.475 Y148.194 E7.21305
G1 X136.526 Y147.809 E7.2301
G1 X136.641 Y147.154 E7.2593
G1 X136.717 Y146.806 E7.27494
G1 X136.878 Y146.189 E7.30293
G1 X136.995 Y145.804 E7.3206
G1 X137.098 Y145.488 E7.33519
G1 X137.21 Y145.168 E7.35008
G1 X137.326 Y144.858 E7.36461
G1 X137.444 Y144.561 E7.37864
G1 X137.677 Y144.031 E7.40406
G1 X137.737 Y143.907 E7.41011
G1 X137.908 Y143.573 E7.42658
G1 X138.102 Y143.216 E7.44442
G1 X138.439 Y142.654 E7.47319
G1 X138.72 Y142.225 E7.4957
G1 X138.906 Y141.952 E7.51021
G1 X139.042 Y141.762 E7.52046
G1 X139.429 Y141.264 E7.54815
G1 X139.751 Y140.882 E7.57009
G1 X140.04 Y140.566 E7.58889
G0 F810 X140.187 Y140.405
G0 X140.553 Y140.036
M204 S450
G0 F6000 X140.866 Y140.346
M204 S250
G1 F900 X141.296 Y139.945 E7.6147
G1 X141.383 Y139.87 E7.61974
G1 X141.663 Y139.64 E7.63565
G1 X141.892 Y139.461 E7.64841
G1 X142.112 Y139.296 E7.66049
G1 X142.511 Y139.007 E7.68212
G1 X143.002 Y138.679 E7.70804
G1 X143.146 Y138.591 E7.71545
G1 X143.427 Y138.428 E7.72971
G1 X143.857 Y138.19 E7.75129
G1 X144.424 Y137.907 E7.77911
G1 X144.801 Y137.738 E7.79725
G1 X145.372 Y137.509 E7.82426
G1 X145.768 Y137.369 E7.8427
G1 X146.035 Y137.28 E7.85506
G1 X146.192 Y137.231 E7.86228
G1 X146.508 Y137.14 E7.87671
G1 X146.761 Y137.073 E7.8882
G1 X147.039 Y137.005 E7.90077
G1 X147.413 Y136.921 E7.9176
G1 X148.025 Y136.81 E7.94491
G1 X148.506 Y136.743 E7.96623
G1 X149.185 Y136.68 E7.99617
G1 X149.352 Y136.672 E8.00351
G1 X150.129 Y136.674 E8.03762
G1 X150.901 Y136.757 E8.07171
G1 X151.621 Y136.908 E8.10401
G1 X151.932 Y136.99 E8.11813
G1 X154.059 Y137.57 E8.21492
G1 X154.184 Y137.601 E8.22057
G1 X155.056 Y137.83 E8.26015
G1 X155.796 Y138.066 E8.29426
G1 X156.508 Y138.376 E8.32835
G1 X157.184 Y138.758 E8.36244
G1 X157.528 Y138.991 E8.38068
G1 X157.795 Y139.182 E8.39509
G1 X158.032 Y139.358 E8.40805
G1 X158.363 Y139.615 E8.42645
G1 X158.846 Y140.024 E8.45424
G1 X159.149 Y140.303 E8.47232
G1 X159.578 Y140.731 E8.49893
G1 X159.897 Y141.076 E8.51955
G1 X160.284 Y141.529 E8.54571
G1 X160.566 Y141.887 E8.56572
G1 X160.927 Y142.386 E8.59276
G1 X161.051 Y142.573 E8.60261
G1 X161.227 Y142.851 E8.61706
G1 X161.466 Y143.248 E8.6374
G1 X161.595 Y143.471 E8.64871
G1 X161.753 Y143.755 E8.66298
G1 X162.081 Y144.419 E8.69549
G1 X162.182 Y144.659 E8.70693
G1 X162.316 Y144.992 E8.72269
G1 X162.431 Y145.298 E8.73704
G1 X162.587 Y145.74 E8.75762
G1 X162.759 Y146.294 E8.78308
G1 X162.817 Y146.51 E8.7929
G1 X162.894 Y146.824 E8.8071
G1 X162.989 Y147.25 E8.82626
G1 X163.1 Y147.869 E8.85387
G1 X163.145 Y148.198 E8.86845
G1 X163.178 Y148.474 E8.88065
G1 X163.211 Y148.806 E8.8953
G1 X163.247 Y149.441 E8.92322
G1 X163.254 Y149.915 E8.94403
G1 X163.238 Y150.535 E8.97126
G1 X163.214 Y150.89 E8.98688
G1 X163.188 Y151.189 E9.00006
G1 X163.148 Y151.56 E9.01644
G1 X163.068 Y152.109 E9.0408
G1 X162.999 Y152.486 E9.05763
G1 X162.84 Y153.17 E9.08846
G1 X162.741 Y153.522 E9.10451
G1 X162.661 Y153.789 E9.11675
G1 X162.588 Y154.016 E9.12722
G1 X162.499 Y154.276 E9.13928
G1 X162.365 Y154.646 E9.15656
G1 X162.121 Y155.241 E9.18479
G1 X161.993 Y155.518 E9.19819
G1 X161.869 Y155.773 E9.21064
G1 X161.69 Y156.125 E9.22798
G1 X161.387 Y156.664 E9.25512
G1 X161.178 Y157.003 E9.27261
G1 X160.839 Y157.506 E9.29924
G1 X160.58 Y157.859 E9.31846
G1 X160.174 Y158.365 E9.34694
G1 X159.9 Y158.678 E9.36521
G1 X159.717 Y158.88 E9.37717
G1 X159.476 Y159.136 E9.39261
G1 X159.036 Y159.567 E9.41965
G1 X158.74 Y159.834 E9.43715
G1 X158.256 Y160.235 E9.46475
G1 X157.959 Y160.461 E9.48113
G1 X157.719 Y160.637 E9.4942
G1 X157.522 Y160.775 E9.50476
G1 X157.299 Y160.925 E9.51656
G1 X157.114 Y161.045 E9.52624
G1 X156.829 Y161.221 E9.54094
G1 X156.456 Y161.44 E9.55993
G1 X155.906 Y161.733 E9.58729
G1 X155.617 Y161.872 E9.60137
G1 X155.058 Y162.113 E9.6281
