;FLAVOR:Marlin
;TIME:9002
;Filament used: 6.54893m
;Layer height: 0.2
;MINX:87.282
;MINY:77.826
;MINZ:0.16
;MAXX:212.718
;MAXY:222.174
;MAXZ:11.56
;Generated with Cura_SteamEngine 4.7.0
M140 S60
M105
M190 S60
M104 S215
M105
M109 S215
M82 ;absolute extrusion mode
M201 X500.00 Y500.00 Z100.00 E5000.00 ;Setup machine max acceleration
M203 X500.00 Y500.00 Z10.00 E50.00 ;Setup machine max feedrate
M204 P500.00 R1000.00 T500.00 ;Setup Print/Retract/Travel acceleration
M205 X8.00 Y8.00 Z0.40 E5.00 ;Setup Jerk
M220 S100 ;Reset Feedrate
M221 S100 ;Reset Flowrate

G28 ;Home

G92 E0 ;Reset Extruder
G1 Z2.0 F3000 ;Move Z Axis up
G1 X10.1 Y20 Z0.28 F5000.0 ;Move to start position
G1 X10.1 Y200.0 Z0.28 F1500.0 E15 ;Draw the first line
G1 X10.4 Y200.0 Z0.28 F5000.0 ;Move to side a little
G1 X10.4 Y20 Z0.28 F1500.0 E30 ;Draw the second line
G92 E0 ;Reset Extruder
G1 Z2.0 F3000 ;Move Z Axis up

G92 E0
G92 E0
G1 F2100 E-3.5
;LAYER_COUNT:59
;LAYER:0
M107
M204 S450
G0 F6000 X89.26 Y80.848 Z0.16
M204 S250
;TYPE:SKIRT
G1 F2100 E0
G1 F900 X89.817 Y80.245 E0.02403
G1 X90.43 Y79.7 E0.04803
G1 X91.093 Y79.217 E0.07204
G1 X91.8 Y78.801 E0.09605
G1 X92.544 Y78.455 E0.12007
G1 X93.318 Y78.184 E0.14407
G1 X94.115 Y77.989 E0.16809
G1 X94.928 Y77.873 E0.19212
G1 X95.479 Y77.839 E0.20828
G1 X95.803 Y77.83 E0.21777
G1 X96.037 Y77.827 E0.22462
G1 X182.321 Y77.826 E2.75006
G1 X203.714 Y77.828 E3.37621
G1 X204.408 Y77.838 E3.39652
G1 X205.227 Y77.89 E3.42054
G1 X206.037 Y78.021 E3.44456
G1 X206.83 Y78.23 E3.46856
G1 X207.6 Y78.516 E3.4926
G1 X208.337 Y78.875 E3.51659
G1 X209.036 Y79.304 E3.5406
G1 X209.691 Y79.8 E3.56465
G1 X210.293 Y80.356 E3.58863
G1 X210.839 Y80.969 E3.61266
G1 X211.323 Y81.632 E3.63669
G1 X211.74 Y82.338 E3.66068
G1 X212.086 Y83.082 E3.6847
G1 X212.358 Y83.857 E3.70874
G1 X212.553 Y84.653 E3.73273
G1 X212.67 Y85.466 E3.75677
G1 X212.703 Y85.994 E3.77225
G1 X212.713 Y86.314 E3.78162
G1 X212.717 Y86.577 E3.78932
G1 X212.718 Y187.995 E6.75772
G1 X212.716 Y213.135 E7.49354
G1 X212.706 Y213.859 E7.51473
G1 X212.655 Y214.678 E7.53875
G1 X212.524 Y215.488 E7.56276
G1 X212.315 Y216.282 E7.58679
G1 X212.03 Y217.051 E7.6108
G1 X211.671 Y217.789 E7.63482
G1 X211.242 Y218.488 E7.65882
G1 X210.748 Y219.143 E7.68284
G1 X210.191 Y219.746 E7.70686
G1 X209.579 Y220.292 E7.73087
G1 X208.916 Y220.776 E7.75489
G1 X208.21 Y221.193 E7.77889
G1 X207.466 Y221.54 E7.80292
G1 X206.692 Y221.812 E7.82693
G1 X205.895 Y222.008 E7.85096
G1 X205.083 Y222.125 E7.87497
G1 X204.547 Y222.159 E7.89069
G1 X204.223 Y222.169 E7.90017
G1 X203.963 Y222.173 E7.90779
G1 X117.679 Y222.174 E10.43322
G1 X96.3 Y222.173 E11.05897
G1 X95.602 Y222.164 E11.0794
G1 X94.784 Y222.114 E11.10338
G1 X93.973 Y221.984 E11.12742
G1 X93.18 Y221.776 E11.15142
G1 X92.41 Y221.491 E11.17545
G1 X91.672 Y221.133 E11.19946
G1 X90.972 Y220.705 E11.22347
G1 X90.317 Y220.211 E11.24748
G1 X89.713 Y219.655 E11.27151
G1 X89.167 Y219.043 E11.29552
G1 X88.682 Y218.381 E11.31954
G1 X88.264 Y217.675 E11.34355
G1 X87.917 Y216.931 E11.36758
G1 X87.644 Y216.158 E11.39157
G1 X87.448 Y215.361 E11.4156
G1 X87.329 Y214.549 E11.43962
G1 X87.294 Y213.972 E11.45654
G1 X87.285 Y213.639 E11.46629
G1 X87.282 Y213.412 E11.47293
G1 X87.282 Y112.005 E14.441
G1 X87.284 Y86.79 E15.17902
G1 X87.294 Y86.129 E15.19837
G1 X87.346 Y85.31 E15.22239
G1 X87.478 Y84.5 E15.24641
G1 X87.688 Y83.707 E15.27042
G1 X87.974 Y82.938 E15.29443
G1 X88.334 Y82.2 E15.31847
G1 X88.718 Y81.577 E15.33989
G0 F810 X88.764 Y81.502
G0 X89.26 Y80.848
M204 S450
G0 F6000 X89.693 Y81.018
M204 S250
G1 F900 X90.247 Y80.442 E15.36328
G1 X90.855 Y79.925 E15.38664
G1 X91.513 Y79.471 E15.41004
G1 X92.212 Y79.085 E15.43341
G1 X92.946 Y78.771 E15.45677
G1 X93.709 Y78.532 E15.48018
G1 X94.491 Y78.37 E15.50355
G1 X95.491 Y78.279 E15.53294
G1 X95.815 Y78.27 E15.54243
G1 X96.037 Y78.267 E15.54892
G1 X182.321 Y78.266 E18.07436
G1 X203.708 Y78.268 E18.70034
G1 X204.402 Y78.278 E18.72065
G1 X205.199 Y78.329 E18.74403
G1 X205.987 Y78.46 E18.76741
G1 X206.758 Y78.669 E18.79079
G1 X207.504 Y78.954 E18.81416
G1 X208.218 Y79.312 E18.83754
G1 X208.893 Y79.74 E18.86093
G1 X209.521 Y80.233 E18.8843
G1 X210.097 Y80.787 E18.90769
G1 X210.615 Y81.395 E18.93107
G1 X211.069 Y82.052 E18.95445
G1 X211.455 Y82.751 E18.97782
G1 X211.77 Y83.485 E19.0012
G1 X212.01 Y84.247 E19.02458
G1 X212.172 Y85.029 E19.04795
G1 X212.263 Y86.008 E19.07673
G1 X212.273 Y86.328 E19.0861
G1 X212.277 Y86.577 E19.09339
G1 X212.278 Y187.995 E22.06178
G1 X212.276 Y213.129 E22.79743
G1 X212.266 Y213.853 E22.81862
G1 X212.215 Y214.65 E22.842
G1 X212.085 Y215.438 E22.86537
G1 X211.876 Y216.209 E22.88875
G1 X211.592 Y216.956 E22.91214
G1 X211.234 Y217.67 E22.93552
G1 X210.807 Y218.345 E22.9589
G1 X210.314 Y218.973 E22.98227
G1 X209.761 Y219.55 E23.00566
G1 X209.153 Y220.068 E23.02904
G1 X208.496 Y220.523 E23.05243
G1 X207.797 Y220.909 E23.0758
G1 X207.063 Y221.224 E23.09918
G1 X206.302 Y221.465 E23.12254
G1 X205.52 Y221.627 E23.14592
G1 X204.533 Y221.719 E23.17493
G1 X204.209 Y221.729 E23.18442
G1 X203.963 Y221.733 E23.19162
G1 X117.679 Y221.734 E25.71706
G1 X96.306 Y221.733 E26.34262
G1 X95.608 Y221.724 E26.36305
G1 X94.811 Y221.674 E26.38643
G1 X94.023 Y221.544 E26.4098
G1 X93.252 Y221.337 E26.43317
G1 X92.505 Y221.053 E26.45656
G1 X91.79 Y220.696 E26.47995
G1 X91.115 Y220.269 E26.50333
G1 X90.486 Y219.777 E26.5267
G1 X89.909 Y219.224 E26.55009
G1 X89.391 Y218.617 E26.57345
G1 X88.935 Y217.96 E26.59686
G1 X88.548 Y217.262 E26.62022
G1 X88.232 Y216.528 E26.64361
G1 X87.991 Y215.767 E26.66697
G1 X87.828 Y214.985 E26.69035
G1 X87.734 Y213.961 E26.72045
G1 X87.725 Y213.628 E26.7302
G1 X87.722 Y213.412 E26.73652
G1 X87.722 Y112.005 E29.70459
G1 X87.724 Y86.796 E30.44243
G1 X87.734 Y86.135 E30.46178
G1 X87.786 Y85.338 E30.48516
G1 X87.917 Y84.55 E30.50854
G1 X88.127 Y83.78 E30.5319
G1 X88.413 Y83.034 E30.55529
G1 X88.771 Y82.32 E30.57866
G1 X89.141 Y81.738 E30.59885
G0 F810 X89.199 Y81.646
G0 X89.693 Y81.018
M204 S450
G0 F6000 X90.126 Y81.193
M204 S250
G1 F900 X90.676 Y80.645 E30.62157
G1 X91.28 Y80.157 E30.6443
G1 X91.931 Y79.733 E30.66704
G1 X92.621 Y79.379 E30.68974
G1 X93.345 Y79.098 E30.71247
G1 X94.094 Y78.892 E30.73521
G1 X94.86 Y78.764 E30.75794
G1 X95.504 Y78.719 E30.77683
G1 X95.828 Y78.71 E30.78632
G1 X96.037 Y78.707 E30.79244
G1 X182.321 Y78.706 E33.31788
G1 X203.702 Y78.708 E33.94367
G1 X204.396 Y78.718 E33.96399
G1 X205.17 Y78.769 E33.98669
G1 X205.936 Y78.899 E34.00943
G1 X206.684 Y79.108 E34.03216
G1 X207.406 Y79.392 E34.05487
G1 X208.095 Y79.749 E34.07758
G1 X208.744 Y80.176 E34.10032
G1 X209.346 Y80.666 E34.12304
G1 X209.894 Y81.216 E34.14577
G1 X210.383 Y81.819 E34.16849
G1 X210.807 Y82.47 E34.19123
G1 X211.162 Y83.16 E34.21394
G1 X211.444 Y83.884 E34.23668
G1 X211.65 Y84.632 E34.25939
G1 X211.778 Y85.398 E34.28212
G1 X211.823 Y86.021 E34.3004
G1 X211.833 Y86.341 E34.30977
G1 X211.837 Y86.577 E34.31668
G1 X211.838 Y187.995 E37.28508
G1 X211.836 Y213.123 E38.02055
G1 X211.826 Y213.847 E38.04174
G1 X211.776 Y214.622 E38.06447
G1 X211.646 Y215.387 E38.08718
G1 X211.437 Y216.135 E38.10991
G1 X211.154 Y216.858 E38.13264
G1 X210.797 Y217.548 E38.15538
G1 X210.371 Y218.197 E38.1781
G1 X209.881 Y218.799 E38.20082
G1 X209.331 Y219.347 E38.22354
G1 X208.728 Y219.836 E38.24627
G1 X208.078 Y220.261 E38.269
G1 X207.388 Y220.616 E38.29171
G1 X206.664 Y220.898 E38.31445
G1 X205.916 Y221.105 E38.33717
G1 X205.15 Y221.233 E38.3599
G1 X204.52 Y221.279 E38.37838
G1 X204.196 Y221.289 E38.38787
G1 X203.963 Y221.293 E38.39469
G1 X117.679 Y221.294 E40.92013
G1 X96.312 Y221.293 E41.54552
G1 X95.614 Y221.284 E41.56595
G1 X94.839 Y221.234 E41.58868
G1 X94.073 Y221.105 E41.61142
G1 X93.325 Y220.898 E41.63413
G1 X92.602 Y220.614 E41.65687
G1 X91.912 Y220.258 E41.6796
G1 X91.263 Y219.833 E41.7023
G1 X90.66 Y219.343 E41.72504
G1 X90.111 Y218.794 E41.74777
G1 X89.622 Y218.192 E41.77047
G1 X89.197 Y217.542 E41.7932
G1 X88.841 Y216.852 E41.81592
G1 X88.558 Y216.129 E41.83865
G1 X88.351 Y215.381 E41.86136
G1 X88.221 Y214.615 E41.88411
G1 X88.174 Y213.949 E41.90365
G1 X88.165 Y213.616 E41.9134
G1 X88.162 Y213.412 E41.91937
G1 X88.162 Y112.005 E44.88744
G1 X88.164 Y86.803 E45.62508
G1 X88.174 Y86.142 E45.64443
G1 X88.226 Y85.367 E45.66716
G1 X88.357 Y84.602 E45.68988
G1 X88.566 Y83.854 E45.71261
G1 X88.851 Y83.132 E45.73533
G1 X89.208 Y82.443 E45.75804
G1 X89.562 Y81.905 E45.77689
G0 F810 X89.635 Y81.794
G0 X90.126 Y81.193
M204 S450
G0 F6000 X90.07 Y81.947
M204 S250
G1 F900 X90.558 Y81.374 E45.79892
G1 X91.105 Y80.855 E45.82099
G1 X91.703 Y80.397 E45.84304
G1 X92.346 Y80.005 E45.86508
G1 X93.028 Y79.683 E45.88715
G1 X93.739 Y79.436 E45.90918
G1 X94.473 Y79.265 E45.93124
G1 X95.516 Y79.159 E45.96192
G1 X95.84 Y79.15 E45.97141
G1 X96.037 Y79.147 E45.97718
G1 X182.321 Y79.146 E48.50262
G1 X203.695 Y79.148 E49.12821
G1 X204.389 Y79.158 E49.14853
G1 X205.141 Y79.209 E49.17059
G1 X205.883 Y79.339 E49.19264
G1 X206.607 Y79.547 E49.21468
G1 X207.305 Y79.83 E49.23673
G1 X207.969 Y80.186 E49.25878
G1 X208.592 Y80.611 E49.28085
G1 X209.166 Y81.099 E49.3029
G1 X209.685 Y81.645 E49.32495
G1 X210.143 Y82.243 E49.347
G1 X210.536 Y82.886 E49.36906
G1 X210.858 Y83.567 E49.3911
G1 X211.106 Y84.278 E49.41314
G1 X211.277 Y85.012 E49.4352
G1 X211.384 Y86.035 E49.46531
G1 X211.394 Y86.355 E49.47468
G1 X211.397 Y86.577 E49.48118
G1 X211.398 Y187.995 E52.44957
G1 X211.396 Y213.117 E53.18487
G1 X211.386 Y213.841 E53.20606
G1 X211.336 Y214.593 E53.22812
G1 X211.206 Y215.335 E53.25017
G1 X210.999 Y216.059 E53.27221
G1 X210.715 Y216.757 E53.29426
G1 X210.36 Y217.421 E53.3163
G1 X209.936 Y218.044 E53.33836
G1 X209.448 Y218.619 E53.36043
G1 X208.903 Y219.138 E53.38246
G1 X208.305 Y219.597 E53.40452
G1 X207.662 Y219.99 E53.42658
G1 X206.981 Y220.312 E53.44863
G1 X206.27 Y220.56 E53.47067
G1 X205.536 Y220.732 E53.49273
G1 X204.506 Y220.84 E53.52304
G1 X204.182 Y220.85 E53.53253
G1 X203.963 Y220.853 E53.53894
G1 X117.679 Y220.854 E56.06438
G1 X96.317 Y220.853 E56.68962
G1 X95.619 Y220.844 E56.71006
G1 X94.868 Y220.795 E56.73208
G1 X94.125 Y220.666 E56.75416
G1 X93.401 Y220.459 E56.7762
G1 X92.703 Y220.176 E56.79824
G1 X92.038 Y219.821 E56.8203
G1 X91.415 Y219.398 E56.84234
G1 X90.84 Y218.911 E56.8644
G1 X90.32 Y218.366 E56.88645
G1 X89.861 Y217.768 E56.90851
G1 X89.468 Y217.126 E56.93054
G1 X89.144 Y216.445 E56.95262
G1 X88.895 Y215.734 E56.97467
G1 X88.723 Y215.001 E56.9967
G1 X88.614 Y213.937 E57.02801
G1 X88.605 Y213.604 E57.03776
G1 X88.602 Y213.412 E57.04338
G1 X88.602 Y112.005 E60.01145
G1 X88.604 Y86.81 E60.74888
G1 X88.614 Y86.149 E60.76823
G1 X88.665 Y85.397 E60.79029
G1 X88.796 Y84.655 E60.81234
G1 X89.004 Y83.931 E60.83439
G1 X89.289 Y83.233 E60.85646
G1 X89.572 Y82.706 E60.87397
G0 F810 X89.645 Y82.57
G0 X90.07 Y81.947
M204 S450
G0 F6000 X90.504 Y82.106
M204 S250
G1 F900 X90.99 Y81.561 E60.89534
G1 X91.532 Y81.072 E60.91671
G1 X92.124 Y80.646 E60.93805
G1 X92.759 Y80.287 E60.9594
G1 X93.43 Y80 E60.98076
G1 X94.128 Y79.787 E61.00212
G1 X94.845 Y79.653 E61.02347
G1 X95.528 Y79.599 E61.04353
G1 X95.852 Y79.59 E61.05301
G1 X96.037 Y79.587 E61.05843
G1 X182.321 Y79.586 E63.58387
G1 X203.689 Y79.588 E64.20929
G1 X204.383 Y79.598 E64.2296
G1 X205.111 Y79.648 E64.25096
G1 X205.829 Y79.778 E64.27232
G1 X206.528 Y79.985 E64.29365
G1 X207.201 Y80.268 E64.31502
G1 X207.839 Y80.623 E64.33639
G1 X208.434 Y81.045 E64.35774
G1 X208.979 Y81.53 E64.37909
G1 X209.468 Y82.072 E64.40046
G1 X209.895 Y82.664 E64.42183
G1 X210.254 Y83.299 E64.44318
G1 X210.542 Y83.969 E64.46452
G1 X210.754 Y84.667 E64.48587
G1 X210.89 Y85.384 E64.50723
G1 X210.944 Y86.049 E64.52676
G1 X210.954 Y86.369 E64.53613
G1 X210.957 Y86.577 E64.54222
G1 X210.958 Y187.995 E67.51061
G1 X210.956 Y213.111 E68.24573
G1 X210.946 Y213.835 E68.26692
G1 X210.896 Y214.563 E68.28828
G1 X210.767 Y215.281 E68.30963
G1 X210.56 Y215.981 E68.331
G1 X210.277 Y216.653 E68.35234
G1 X209.923 Y217.291 E68.3737
G1 X209.501 Y217.887 E68.39507
G1 X209.017 Y218.432 E68.41641
G1 X208.475 Y218.921 E68.43777
G1 X207.884 Y219.348 E68.45911
G1 X207.249 Y219.708 E68.48048
G1 X206.578 Y219.996 E68.50185
G1 X205.881 Y220.21 E68.52319
G1 X205.164 Y220.345 E68.54454
G1 X204.492 Y220.4 E68.56428
G1 X204.168 Y220.41 E68.57377
G1 X203.963 Y220.413 E68.57977
G1 X117.679 Y220.414 E71.10521
G1 X96.323 Y220.413 E71.73027
G1 X95.625 Y220.404 E71.7507
G1 X94.897 Y220.355 E71.77206
G1 X94.179 Y220.226 E71.79341
G1 X93.479 Y220.02 E71.81477
G1 X92.806 Y219.738 E71.83613
G1 X92.168 Y219.384 E71.85748
G1 X91.572 Y218.963 E71.87884
G1 X91.026 Y218.479 E71.90019
G1 X90.537 Y217.938 E71.92154
G1 X90.109 Y217.347 E71.9429
G1 X89.749 Y216.712 E71.96426
G1 X89.46 Y216.042 E71.98562
G1 X89.246 Y215.345 E72.00696
G1 X89.11 Y214.628 E72.02832
G1 X89.053 Y213.925 E72.04896
G1 X89.044 Y213.592 E72.05871
G1 X89.042 Y213.412 E72.06398
G1 X89.042 Y112.005 E75.03205
G1 X89.044 Y86.816 E75.76931
G1 X89.054 Y86.155 E75.78866
G1 X89.105 Y85.427 E75.81002
G1 X89.235 Y84.709 E75.83137
G1 X89.443 Y84.01 E75.85272
G1 X89.726 Y83.338 E75.87406
G1 X89.994 Y82.858 E75.89015
G0 F810 X90.082 Y82.7
G0 X90.504 Y82.106
M204 S450
G0 F6000 X90.938 Y82.27
M204 S250
G1 F900 X91.42 Y81.755 E75.9108
G1 X91.957 Y81.298 E75.93144
G1 X92.543 Y80.905 E75.95209
G1 X93.169 Y80.58 E75.97273
G1 X93.827 Y80.329 E75.99334
G1 X94.51 Y80.153 E76.01399
G1 X95.54 Y80.038 E76.04432
G1 X95.864 Y80.029 E76.05381
G1 X96.037 Y80.027 E76.05887
G1 X182.321 Y80.026 E78.58431
G1 X203.683 Y80.028 E79.20956
G1 X204.377 Y80.038 E79.22987
G1 X205.08 Y80.088 E79.2505
G1 X205.773 Y80.217 E79.27113
G1 X206.447 Y80.424 E79.29177
G1 X207.093 Y80.706 E79.3124
G1 X207.704 Y81.059 E79.33305
G1 X208.27 Y81.48 E79.3537
G1 X208.785 Y81.961 E79.37432
G1 X209.242 Y82.498 E79.39496
G1 X209.636 Y83.083 E79.41561
G1 X209.961 Y83.709 E79.43625
G1 X210.213 Y84.367 E79.45687
G1 X210.389 Y85.05 E79.47752
G1 X210.504 Y86.063 E79.50736
G1 X210.514 Y86.383 E79.51673
G1 X210.517 Y86.577 E79.52241
G1 X210.518 Y187.995 E82.4908
G1 X210.516 Y213.105 E83.22574
G1 X210.506 Y213.829 E83.24694
G1 X210.457 Y214.532 E83.26756
G1 X210.328 Y215.226 E83.28822
G1 X210.121 Y215.9 E83.30886
G1 X209.84 Y216.546 E83.32948
G1 X209.487 Y217.157 E83.35013
G1 X209.067 Y217.723 E83.37076
G1 X208.586 Y218.239 E83.39141
G1 X208.049 Y218.696 E83.41205
G1 X207.464 Y219.09 E83.43269
G1 X206.839 Y219.415 E83.45331
G1 X206.18 Y219.668 E83.47397
G1 X205.498 Y219.844 E83.49458
G1 X204.479 Y219.96 E83.5246
G1 X204.155 Y219.97 E83.53409
G1 X203.963 Y219.973 E83.53971
G1 X117.679 Y219.974 E86.06515
G1 X96.329 Y219.973 E86.69004
G1 X95.631 Y219.964 E86.71047
G1 X94.927 Y219.915 E86.73113
G1 X94.234 Y219.787 E86.75175
G1 X93.56 Y219.581 E86.77238
G1 X92.913 Y219.3 E86.79303
G1 X92.302 Y218.948 E86.81367
G1 X91.735 Y218.528 E86.83432
G1 X91.219 Y218.048 E86.85495
G1 X90.761 Y217.512 E86.87558
G1 X90.367 Y216.927 E86.89623
G1 X90.041 Y216.302 E86.91686
G1 X89.788 Y215.644 E86.93749
G1 X89.611 Y214.961 E86.95814
G1 X89.493 Y213.913 E86.98901
G1 X89.484 Y213.58 E86.99876
G1 X89.482 Y213.412 E87.00368
G1 X89.482 Y112.005 E89.97175
G1 X89.484 Y86.823 E90.7088
G1 X89.494 Y86.162 E90.72815
G1 X89.544 Y85.459 E90.74878
G1 X89.674 Y84.766 E90.76941
G1 X89.882 Y84.092 E90.79006
G1 X90.164 Y83.446 E90.81069
G1 X90.416 Y83.013 E90.82535
G0 F810 X90.518 Y82.836
G0 X90.938 Y82.27
M204 S450
G1 F2100 E87.32535
;MESH:display_plate_draft.stl
G0 F6000 X137.982 Y173.39
G0 X138.042 Y185.342
G0 X138.029 Y188.846
G0 X145.995 Y188.909
G0 X150.922 Y198.451
G0 X151.105 Y196.484
G0 X153.978 Y198.675
G0 X154.724 Y199.609
G0 X155.125 Y200.4
G0 X155.908 Y203.493
M204 S250
;TYPE:WALL-INNER
G1 F2100 E90.82535
G1 F900 X155.997 Y203.455 E90.82819
G1 X156.075 Y202.159 E90.86619
G1 X156.035 Y201.484 E90.88598
G1 X155.908 Y200.817 E90.90585
G1 X155.704 Y200.177 E90.92551
G1 X155.57 Y199.879 E90.93508
G1 X155.42 Y199.56 E90.94539
G1 X155.252 Y199.284 E90.95485
G1 X155.067 Y198.987 E90.96509
G1 X154.863 Y198.728 E90.97474
G1 X154.64 Y198.46 E90.98495
G1 X154.412 Y198.23 E90.99442
G1 X154.154 Y197.988 E91.00478
G1 X153.898 Y197.787 E91.0143
G1 X153.613 Y197.581 E91.0246
